**kern	**kern	**kern	**kern	**kern	**kern	**kern	**kern	**kern	**kern	**kern	**kern	**kern	**kern	**kern	**kern	**kern	**kern
*ITrd7c12	*	*	*	*	*	*	*	*ITrd3c5	*ITrd3c5	*	*	*	*	*	*	*	*
*	*Icello	*Iviola	*Ivioln	*Ivioln	*Itimpa	*Itromp	*Itromp	*	*	*Ifagot	*Ifagot	*Iclars	*Iclars	*Ioboe	*Ioboe	*Iflt	*Iflt
*Icbass	*I"Violoncello	*I"Viola	*I#2	*I#1	*I"Timpani	*I#2	*I#1	*Icor	*Icor	*I#2	*I#1	*I#2	*I#1	*I#2	*I#1	*I#2	*I#1
*I"Basso	*	*	*I"Violino II	*I"Violino I	*	*I"Tromba 2	*I"Tromba 1	*I#2	*I#1	*I"Fagotto 2	*I"Fagotto 1	*I"Clarinetto 2	*I"Clarinetto 1	*I"Oboe 2	*I"Oboe 1	*I"Flauto 2	*I"Flauto 1
*	*	*	*	*	*	*	*	*I"Corno 2	*I"Corno 1	*	*	*	*	*	*	*	*
*>[A,A,B]	*>[A,A,B]	*>[A,A,B]	*>[A,A,B]	*>[A,A,B]	*>[A,A,B]	*>[A,A,B]	*>[A,A,B]	*>[A,A,B]	*>[A,A,B]	*>[A,A,B]	*>[A,A,B]	*>[A,A,B]	*>[A,A,B]	*>[A,A,B]	*>[A,A,B]	*>[A,A,B]	*>[A,A,B]
*>norep[A,B]	*>norep[A,B]	*>norep[A,B]	*>norep[A,B]	*>norep[A,B]	*>norep[A,B]	*>norep[A,B]	*>norep[A,B]	*>norep[A,B]	*>norep[A,B]	*>norep[A,B]	*>norep[A,B]	*>norep[A,B]	*>norep[A,B]	*>norep[A,B]	*>norep[A,B]	*>norep[A,B]	*>norep[A,B]
=1	=1	=1	=1	=1	=1	=1	=1	=1	=1	=1	=1	=1	=1	=1	=1	=1	=1
*>A	*>A	*>A	*>A	*>A	*>A	*>A	*>A	*>A	*>A	*>A	*>A	*>A	*>A	*>A	*>A	*>A	*>A
*staff:6	*staff:7	*staff:8	*staff:9	*staff:10	*staff:11	*staff:12	*staff:12	*staff:13	*staff:13	*staff:14	*staff:14	*staff:15	*staff:15	*staff:16	*staff:16	*staff:17	*staff:17
*clefF4	*clefF4	*clefC3	*clefG2	*clefG2	*clefF4	*clefG2	*clefG2	*clefG2	*clefG2	*clefF4	*clefF4	*clefG2	*clefG2	*clefG2	*clefG2	*clefG2	*clefG2
*k[f#]	*k[f#]	*k[f#]	*k[f#]	*k[f#]	*M3/4	*M3/4	*M3/4	*M3/4	*M3/4	*k[f#]	*k[f#]	*k[f#]	*k[f#]	*k[f#]	*k[f#]	*k[f#]	*k[f#]
*M3/4	*M3/4	*M3/4	*M3/4	*M3/4	*	*	*	*	*	*M3/4	*M3/4	*M3/4	*M3/4	*M3/4	*M3/4	*M3/4	*M3/4
4GGG'	4GG'	4G'	4B'	4..g'	2.r	2.r	2.r	2.r	2.r	2.r	2.r	2.r	2.r	2.r	2.r	2.r	2.r
4r	4G'	4G'	4B'	.	.	.	.	.	.	.	.	.	.	.	.	.	.
.	.	.	.	16d	.	.	.	.	.	.	.	.	.	.	.	.	.
4r	4r	4r	4r	8.b'	.	.	.	.	.	.	.	.	.	.	.	.	.
.	.	.	.	16b'	.	.	.	.	.	.	.	.	.	.	.	.	.
=2	=2	=2	=2	=2	=2	=2	=2	=2	=2	=2	=2	=2	=2	=2	=2	=2	=2
2.r	2c	2c	2e	4b	2.r	2.r	2.r	2.r	2.r	2.r	2.r	2.r	2.r	2.r	2.r	2.r	2.r
.	.	.	.	4a	.	.	.	.	.	.	.	.	.	.	.	.	.
.	4B	4B	4d	4g	.	.	.	.	.	.	.	.	.	.	.	.	.
=3	=3	=3	=3	=3	=3	=3	=3	=3	=3	=3	=3	=3	=3	=3	=3	=3	=3
[2.DD	2A	2A	2c	4g	2.r	2.r	2.r	2.r	2.r	2.r	2.r	2.r	2.r	2.r	2.r	2.r	2.r
.	.	.	.	8.f#	.	.	.	.	.	.	.	.	.	.	.	.	.
.	.	.	.	16g'	.	.	.	.	.	.	.	.	.	.	.	.	.
.	4G	4G	4B	8.gT	.	.	.	.	.	.	.	.	.	.	.	.	.
.	.	.	.	32f#	.	.	.	.	.	.	.	.	.	.	.	.	.
.	.	.	.	32g	.	.	.	.	.	.	.	.	.	.	.	.	.
=4	=4	=4	=4	=4	=4	=4	=4	=4	=4	=4	=4	=4	=4	=4	=4	=4	=4
.	.	.	.	16f#Q	.	.	.	.	.	.	.	.	.	.	.	.	.
.	.	.	.	16gQ	.	.	.	.	.	.	.	.	.	.	.	.	.
8DD]	8F#	8D	8A	8a'	2.r	2.r	2.r	2.r	2.r	2.r	2.r	2.r	2.r	4ryy	4r	2.ryy	4r
8r	8r	8r	8r	8r	.	.	.	.	.	.	.	.	.	.	.	.	.
4r	4r	4r	4r	4r	.	.	.	.	.	.	.	.	.	4ryy	4r	.	4r
4r	4r	4r	4r	4r	.	.	.	.	.	.	.	.	.	8.b	8.dd	.	8.gg
.	.	.	.	.	.	.	.	.	.	.	.	.	.	16b	16dd	.	16gg
=5	=5	=5	=5	=5	=5	=5	=5	=5	=5	=5	=5	=5	=5	=5	=5	=5	=5
2.r	2.r	2.r	2.r	2.r	2.r	2.r	2.r	2.r	2.r	2.ryy	2.d	2.r	2.r	2a	2cc	2.ryy	4gg
.	.	.	.	.	.	.	.	.	.	.	.	.	.	.	.	.	8.ff#
.	.	.	.	.	.	.	.	.	.	.	.	.	.	.	.	.	16gg
.	.	.	.	.	.	.	.	.	.	.	.	.	.	4g	4b	.	8.ggT
.	.	.	.	.	.	.	.	.	.	.	.	.	.	.	.	.	32ff#
.	.	.	.	.	.	.	.	.	.	.	.	.	.	.	.	.	32gg
=6	=6	=6	=6	=6	=6	=6	=6	=6	=6	=6	=6	=6	=6	=6	=6	=6	=6
.	.	.	.	.	.	.	.	.	.	.	.	.	.	.	.	.	16ff#Q
.	.	.	.	.	.	.	.	.	.	.	.	.	.	.	.	.	16ggQ
2.r	4r	4r	2.r	2.r	2.r	2.r	2.r	2.r	2.r	4.ryy	8D'	2.r	2.r	8f#'	8a'y	2.ryy	8aa'
.	.	.	.	.	.	.	.	.	.	.	8r	.	.	8ryy	8r	.	8r
.	4r	4r	.	.	.	.	.	.	.	.	8r	.	.	4ryy	4r	.	4r
.	.	.	.	.	.	.	.	.	.	8c	8e	.	.	.	.	.	.
.	4FF#	[4D	.	.	.	.	.	.	.	8B	8d	.	.	4ryy	4r	.	4r
.	.	.	.	.	.	.	.	.	.	8A	8c	.	.	.	.	.	.
=7	=7	=7	=7	=7	=7	=7	=7	=7	=7	=7	=7	=7	=7	=7	=7	=7	=7
4GGG	4GG'	4D']	4B'	4..g	2.r	2.r	2.r	2.r	2.r	4G	4B	2.r	2.r	2.r	2.r	2.r	2.r
4r	4G'	4G'	4B'	.	.	.	.	.	.	4ryy	4r	.	.	.	.	.	.
.	.	.	.	16d	.	.	.	.	.	.	.	.	.	.	.	.	.
4r	4r	4r	4r	8.b	.	.	.	.	.	4ryy	4r	.	.	.	.	.	.
.	.	.	.	16b'	.	.	.	.	.	.	.	.	.	.	.	.	.
=8	=8	=8	=8	=8	=8	=8	=8	=8	=8	=8	=8	=8	=8	=8	=8	=8	=8
*	*staff:1	*staff:2	*staff:3	*staff:4	*	*	*	*	*	*	*	*	*	*	*	*staff:5	*staff:5
2.ryy	2c	2c	2e	4b	2.ryy	2.ryy	2.ryy	2.ryy	2.ryy	2.ryy	2.ryy	2.ryy	2.ryy	2.ryy	2.ryy	2.r	2.r
.	.	.	.	4a	.	.	.	.	.	.	.	.	.	.	.	.	.
.	4B^	4B^	4d^	4g#^	.	.	.	.	.	.	.	.	.	.	.	.	.
=9	=9	=9	=9	=9	=9	=9	=9	=9	=9	=9	=9	=9	=9	=9	=9	=9	=9
2.ryy	4c	2c	4e	8a'	2.ryy	2.ryy	2.ryy	2.ryy	2.ryy	2.ryy	2.ryy	2.ryy	2.ryy	2.ryy	2.ryy	2.r	2.r
.	.	.	.	32bQ	.	.	.	.	.	.	.	.	.	.	.	.	.
.	.	.	.	32aQ	.	.	.	.	.	.	.	.	.	.	.	.	.
.	.	.	.	32g#Q	.	.	.	.	.	.	.	.	.	.	.	.	.
.	.	.	.	16.a	.	.	.	.	.	.	.	.	.	.	.	.	.
.	.	.	.	32b	.	.	.	.	.	.	.	.	.	.	.	.	.
.	4A	.	8a	8cc'	.	.	.	.	.	.	.	.	.	.	.	.	.
.	.	.	32bQ	32ddQ	.	.	.	.	.	.	.	.	.	.	.	.	.
.	.	.	32aQ	32ccQ	.	.	.	.	.	.	.	.	.	.	.	.	.
.	.	.	32g#Q	32bQ	.	.	.	.	.	.	.	.	.	.	.	.	.
.	.	.	16.a	16.cc	.	.	.	.	.	.	.	.	.	.	.	.	.
.	.	.	32b	32dd	.	.	.	.	.	.	.	.	.	.	.	.	.
.	4G	4B	8.cc'	8.ee'	.	.	.	.	.	.	.	.	.	.	.	.	.
.	.	.	16cc'	16ee'	.	.	.	.	.	.	.	.	.	.	.	.	.
=10	=10	=10	=10	=10	=10	=10	=10	=10	=10	=10	=10	=10	=10	=10	=10	=10	=10
2.ryy	2F#	4A	4.cc	4.ee	2.ryy	2.ryy	2.ryy	2.ryy	2.ryy	2.ryy	2.ryy	2.ryy	2.ryy	2.ryy	2.ryy	2.r	2.r
.	.	2d	.	.	.	.	.	.	.	.	.	.	.	.	.	.	.
.	.	.	8b	8dd	.	.	.	.	.	.	.	.	.	.	.	.	.
.	4G	.	8a	8cc	.	.	.	.	.	.	.	.	.	.	.	.	.
.	.	.	8g	8b	.	.	.	.	.	.	.	.	.	.	.	.	.
=11	=11	=11	=11	=11	=11	=11	=11	=11	=11	=11	=11	=11	=11	=11	=11	=11	=11
2.ryy	4C	4e	4e	8a'	2.ryy	2.ryy	2.ryy	2.ryy	2.ryy	2.ryy	2.ryy	2.ryy	2.ryy	2.ryy	2.ryy	2.r	2.r
.	.	.	.	32bQ	.	.	.	.	.	.	.	.	.	.	.	.	.
.	.	.	.	32aQ	.	.	.	.	.	.	.	.	.	.	.	.	.
.	.	.	.	32g#Q	.	.	.	.	.	.	.	.	.	.	.	.	.
.	.	.	.	16.a	.	.	.	.	.	.	.	.	.	.	.	.	.
.	.	.	.	32b	.	.	.	.	.	.	.	.	.	.	.	.	.
.	4r	4r	4r	8cc	.	.	.	.	.	.	.	.	.	.	.	.	.
.	.	.	.	8e	.	.	.	.	.	.	.	.	.	.	.	.	.
.	4D	8F#	4c	8a	.	.	.	.	.	.	.	.	.	.	.	.	.
.	.	8A	.	8f#	.	.	.	.	.	.	.	.	.	.	.	.	.
=12	=12	=12	=12	=12	=12	=12	=12	=12	=12	=12	=12	=12	=12	=12	=12	=12	=12
.	.	.	.	16gQ	.	.	.	.	.	.	.	.	.	.	.	.	.
.	.	.	.	16aQ	.	.	.	.	.	.	.	.	.	.	.	.	.
2.ryy	4G	4G'	4B'	4b'	2.ryy	2.ryy	2.ryy	2.ryy	2.ryy	2.ryy	2.ryy	2.ryy	2.ryy	2.ryy	2.ryy	2.ryy	4r
.	.	.	.	.	.	.	.	.	.	.	.	.	.	.	.	.	16ggQ
.	.	.	.	.	.	.	.	.	.	.	.	.	.	.	.	.	16aaQ
.	4r	8r	8r	8r	.	.	.	.	.	.	.	.	.	.	.	.	4bb'
.	.	8B'	8g'	8g'	.	.	.	.	.	.	.	.	.	.	.	.	.
.	4G	8B'	8g'	8g'	.	.	.	.	.	.	.	.	.	.	.	.	4r
.	.	8B'	8g'	8g'	.	.	.	.	.	.	.	.	.	.	.	.	.
=13	=13	=13	=13	=13	=13	=13	=13	=13	=13	=13	=13	=13	=13	=13	=13	=13	=13
.	.	.	.	16aQ	.	.	.	.	.	.	.	.	.	.	.	.	.
.	.	.	.	16bQ	.	.	.	.	.	.	.	.	.	.	.	.	.
2.ryy	4GG	4A'	4f#'	4cc'	2.ryy	2.ryy	2.ryy	2.ryy	2.ryy	2.ryy	2.ryy	2.ryy	2.ryy	2.ryy	2.ryy	2.ryy	4r
.	.	.	.	.	.	.	.	.	.	.	.	.	.	.	.	.	16aaQ
.	.	.	.	.	.	.	.	.	.	.	.	.	.	.	.	.	16bbQ
.	4r	8r	8r	8r	.	.	.	.	.	.	.	.	.	.	.	.	4ccc'
.	.	8c'	8f#'	8a'	.	.	.	.	.	.	.	.	.	.	.	.	.
.	4G	8c'	8f#'	8a'	.	.	.	.	.	.	.	.	.	.	.	.	4r
.	.	8c'	8f#'	8a'	.	.	.	.	.	.	.	.	.	.	.	.	.
=14	=14	=14	=14	=14	=14	=14	=14	=14	=14	=14	=14	=14	=14	=14	=14	=14	=14
*staff:4	*staff:5	*staff:6	*staff:7	*staff:8	*	*	*	*staff:9	*staff:9	*staff:10	*staff:10	*staff:11	*staff:11	*staff:12	*staff:12	*	*staff:13
.	.	.	.	16bQ	.	.	.	.	.	.	.	.	.	.	.	.	.
.	.	.	.	16ccQ	.	.	.	.	.	.	.	.	.	.	.	.	.
2.r	4GG	4B'	4g	4dd'	2.ryy	2.ryy	2.ryy	2.r	2.r	2.r	2.r	2.r	2.r	2.r	2.r	2.ryy	4r
.	.	.	.	.	.	.	.	.	.	.	.	.	.	.	.	.	16bbQ
.	.	.	.	.	.	.	.	.	.	.	.	.	.	.	.	.	16cccQ
.	4r	8r	8r	8r	.	.	.	.	.	.	.	.	.	.	.	.	4ddd'
.	.	8d'	8g'	8b'	.	.	.	.	.	.	.	.	.	.	.	.	.
.	4G	8d'	8g'	8b'	.	.	.	.	.	.	.	.	.	.	.	.	4r
.	.	8d'	8g'	8b'	.	.	.	.	.	.	.	.	.	.	.	.	.
=15	=15	=15	=15	=15	=15	=15	=15	=15	=15	=15	=15	=15	=15	=15	=15	=15	=15
*	*	*	*	*	*	*	*	*	*	*	*	*	*	*	*	*staff:13	*
.	.	.	.	16ggQ	.	.	.	.	.	.	.	.	.	.	.	.	.
.	.	.	.	16aaQ	.	.	.	.	.	.	.	.	.	.	.	.	.
2EE	2AA 2E	2G	2c#	4bb	2.ryy	2.ryy	2.ryy	2g	2g	2G	2c#	4bb	4bb	2.r	2.r	8.gg	8.gg
.	.	.	.	.	.	.	.	.	.	.	.	.	.	.	.	16bb	16bb
.	.	.	.	16aa	.	.	.	.	.	.	.	16aa	16aa	.	.	16aa	16aa
.	.	.	.	16gg	.	.	.	.	.	.	.	16gg	16gg	.	.	16gg	16gg
.	.	.	.	16ff#	.	.	.	.	.	.	.	16ff#	16ff#	.	.	16ff#	16ff#
.	.	.	.	16ee	.	.	.	.	.	.	.	16ee	16ee	.	.	16ee	16ee
4AAA	4A	4A	4e	16dd	.	.	.	4a	4a	4G	4e	16dd	16dd	.	.	16dd	16dd
.	.	.	.	16cc#	.	.	.	.	.	.	.	16cc#	16cc#	.	.	16cc#	16cc#
.	.	.	.	16ee	.	.	.	.	.	.	.	16ee	16ee	.	.	16ee	16ee
.	.	.	.	16g	.	.	.	.	.	.	.	16cc#	16cc#	.	.	16g	16g
=16	=16	=16	=16	=16	=16	=16	=16	=16	=16	=16	=16	=16	=16	=16	=16	=16	=16
4DD	4D	4A	4e	4g	2.ryy	2.ryy	2.ryy	4d	4a	4G	4e	4dd	4dd	4d	4..dd	4g	4g
4r	4r	4r	8d	8f#	.	.	.	4ryy	4r	8F#	8d	4r	4r	4f#	.	8f#	8f#
.	.	.	8r	8r	.	.	.	.	.	8ryy	8r	.	.	.	.	8r	8r
.	.	.	.	.	.	.	.	.	.	.	.	.	.	.	16a	.	.
4r	4r	4r	4r	4r	.	.	.	4ryy	4r	4ryy	4r	4r	4r	4d	8.ff#'	4r	4r
.	.	.	.	.	.	.	.	.	.	.	.	.	.	.	16ff#'	.	.
=17	=17	=17	=17	=17	=17	=17	=17	=17	=17	=17	=17	=17	=17	=17	=17	=17	=17
2.r	2.r	2.r	2.r	2.r	2.ryy	2.ryy	2.ryy	2.r	2.r	2.r	2.r	2.r	2.r	2g	4ff#	2.ryy	4..bb
.	.	.	.	.	.	.	.	.	.	.	.	.	.	.	4ee	.	.
.	.	.	.	.	.	.	.	.	.	.	.	.	.	.	.	.	16ee
.	.	.	.	.	.	.	.	.	.	.	.	.	.	4g#	4dd	.	8.eee'
.	.	.	.	.	.	.	.	.	.	.	.	.	.	.	.	.	16eee'
=18	=18	=18	=18	=18	=18	=18	=18	=18	=18	=18	=18	=18	=18	=18	=18	=18	=18
2.r	2.r	2.r	2.r	2.r	2.ryy	2.ryy	2.ryy	2.r	2.r	2.r	2.r	2.r	2.r	2a	4dd	2.ryy	[4eee
.	.	.	.	.	.	.	.	.	.	.	.	.	.	.	8.cc#	.	16eee]
.	.	.	.	.	.	.	.	.	.	.	.	.	.	.	.	.	16aa
.	.	.	.	.	.	.	.	.	.	.	.	.	.	.	.	.	16gg#
.	.	.	.	.	.	.	.	.	.	.	.	.	.	.	16cc#	.	16aa
.	.	.	.	.	.	.	.	.	.	.	.	.	.	4b	8.ddT	.	16gg#
.	.	.	.	.	.	.	.	.	.	.	.	.	.	.	.	.	16aa
.	.	.	.	.	.	.	.	.	.	.	.	.	.	.	.	.	16gg#
.	.	.	.	.	.	.	.	.	.	.	.	.	.	.	32cc#	.	16aa
.	.	.	.	.	.	.	.	.	.	.	.	.	.	.	32dd	.	.
=19	=19	=19	=19	=19	=19	=19	=19	=19	=19	=19	=19	=19	=19	=19	=19	=19	=19
2.r	2.r	2.r	2.r	2.r	2.ryy	2.ryy	2.ryy	2.r	2.r	2.r	2.r	2.r	2.r	2.cc#	[2.ee	2.ryy	16gg#
.	.	.	.	.	.	.	.	.	.	.	.	.	.	.	.	.	16aa
.	.	.	.	.	.	.	.	.	.	.	.	.	.	.	.	.	16bb
.	.	.	.	.	.	.	.	.	.	.	.	.	.	.	.	.	16aa
.	.	.	.	.	.	.	.	.	.	.	.	.	.	.	.	.	16gg#
.	.	.	.	.	.	.	.	.	.	.	.	.	.	.	.	.	16aa
.	.	.	.	.	.	.	.	.	.	.	.	.	.	.	.	.	16bb
.	.	.	.	.	.	.	.	.	.	.	.	.	.	.	.	.	16aa
.	.	.	.	.	.	.	.	.	.	.	.	.	.	.	.	.	16ff#
.	.	.	.	.	.	.	.	.	.	.	.	.	.	.	.	.	16ggn
.	.	.	.	.	.	.	.	.	.	.	.	.	.	.	.	.	16aa
.	.	.	.	.	.	.	.	.	.	.	.	.	.	.	.	.	16gg
=20	=20	=20	=20	=20	=20	=20	=20	=20	=20	=20	=20	=20	=20	=20	=20	=20	=20
*	*	*	*	*	*	*	*	*	*	*	*staff:1	*	*	*staff:2	*staff:2	*	*staff:3
2.ryy	2.ryy	2.ryy	2.ryy	2.ryy	2.ryy	2.ryy	2.ryy	2.ryy	2.ryy	2.ryy	4..d	2.ryy	2.ryy	4dd	16ee]	2.ryy	[4ff#
.	.	.	.	.	.	.	.	.	.	.	.	.	.	.	16a	.	.
.	.	.	.	.	.	.	.	.	.	.	.	.	.	.	16b	.	.
.	.	.	.	.	.	.	.	.	.	.	.	.	.	.	16cc#	.	.
.	.	.	.	.	.	.	.	.	.	.	.	.	.	4r	16dd	.	16ff#]
.	.	.	.	.	.	.	.	.	.	.	.	.	.	.	16ee	.	16gg
.	.	.	.	.	.	.	.	.	.	.	.	.	.	.	16ff#	.	16aa
.	.	.	.	.	.	.	.	.	.	.	16A	.	.	.	16ee	.	16gg
.	.	.	.	.	.	.	.	.	.	.	8.f#'	.	.	4r	16dd	.	16ff#
.	.	.	.	.	.	.	.	.	.	.	.	.	.	.	16cc#	.	16ee
.	.	.	.	.	.	.	.	.	.	.	.	.	.	.	16b	.	16dd
.	.	.	.	.	.	.	.	.	.	.	16f#'	.	.	.	16a	.	16cc#
=21	=21	=21	=21	=21	=21	=21	=21	=21	=21	=21	=21	=21	=21	=21	=21	=21	=21
2.ryy	2.ryy	2.ryy	2.ryy	2.ryy	2.ryy	2.ryy	2.ryy	2.ryy	2.ryy	2.ryy	4f#	2.ryy	2.ryy	2.ryy	[2.g	2.ryy	16b
.	.	.	.	.	.	.	.	.	.	.	.	.	.	.	.	.	16cc#
.	.	.	.	.	.	.	.	.	.	.	.	.	.	.	.	.	16dd
.	.	.	.	.	.	.	.	.	.	.	.	.	.	.	.	.	16dd#
.	.	.	.	.	.	.	.	.	.	.	4e	.	.	.	.	.	16ee
.	.	.	.	.	.	.	.	.	.	.	.	.	.	.	.	.	16ff#
.	.	.	.	.	.	.	.	.	.	.	.	.	.	.	.	.	16gg
.	.	.	.	.	.	.	.	.	.	.	.	.	.	.	.	.	16gg#
.	.	.	.	.	.	.	.	.	.	.	4d	.	.	.	.	.	16aa
.	.	.	.	.	.	.	.	.	.	.	.	.	.	.	.	.	16aa#
.	.	.	.	.	.	.	.	.	.	.	.	.	.	.	.	.	16bb
.	.	.	.	.	.	.	.	.	.	.	.	.	.	.	.	.	16bb'
=22	=22	=22	=22	=22	=22	=22	=22	=22	=22	=22	=22	=22	=22	=22	=22	=22	=22
2.ryy	2.ryy	2.ryy	2.ryy	2.ryy	2.ryy	2.ryy	2.ryy	2.ryy	2.ryy	2.ryy	2c#	2.ryy	2.ryy	2.ryy	4g]	2.ryy	4.bb
.	.	.	.	.	.	.	.	.	.	.	.	.	.	.	4gg	.	.
.	.	.	.	.	.	.	.	.	.	.	.	.	.	.	.	.	8bb-
.	.	.	.	.	.	.	.	.	.	.	8d	.	.	.	16ff#	.	8aa
.	.	.	.	.	.	.	.	.	.	.	.	.	.	.	16cc#	.	.
.	.	.	.	.	.	.	.	.	.	.	8F#	.	.	.	16ee	.	8aa
.	.	.	.	.	.	.	.	.	.	.	.	.	.	.	16dd	.	.
=23	=23	=23	=23	=23	=23	=23	=23	=23	=23	=23	=23	=23	=23	=23	=23	=23	=23
2.ryy	2.ryy	2.ryy	2.ryy	2.ryy	2.ryy	2.ryy	2.ryy	2.ryy	2.ryy	2.ryy	4G	2.ryy	2.ryy	2.ryy	16cc#	2.ryy	16aa
.	.	.	.	.	.	.	.	.	.	.	.	.	.	.	16b	.	16gg
.	.	.	.	.	.	.	.	.	.	.	.	.	.	.	16a	.	16ff#
.	.	.	.	.	.	.	.	.	.	.	.	.	.	.	16g	.	16ee
.	.	.	.	.	.	.	.	.	.	.	2A	.	.	.	4f#	.	[4dd
.	.	.	.	.	.	.	.	.	.	.	.	.	.	.	8aQ	.	.
.	.	.	.	.	.	.	.	.	.	.	.	.	.	.	4g	.	16dd]
.	.	.	.	.	.	.	.	.	.	.	.	.	.	.	.	.	16cc#
.	.	.	.	.	.	.	.	.	.	.	.	.	.	.	.	.	16ff#
.	.	.	.	.	.	.	.	.	.	.	.	.	.	.	.	.	16ee
=24	=24	=24	=24	=24	=24	=24	=24	=24	=24	=24	=24	=24	=24	=24	=24	=24	=24
*	*	*	*	*	*	*	*	*	*	*staff:1	*	*	*	*	*	*	*
2.ryy	2.ryy	2.ryy	2.ryy	2.ryy	2.ryy	2.ryy	2.ryy	2.ryy	2.ryy	2.r	2.r	2.ryy	2.ryy	4r	2gg	2.ryy	4.bb
.	.	.	.	.	.	.	.	.	.	.	.	.	.	4cc#	.	.	.
.	.	.	.	.	.	.	.	.	.	.	.	.	.	.	.	.	8bb-
.	.	.	.	.	.	.	.	.	.	.	.	.	.	4dd	4ff#	.	8aa
.	.	.	.	.	.	.	.	.	.	.	.	.	.	.	.	.	8aa
=25	=25	=25	=25	=25	=25	=25	=25	=25	=25	=25	=25	=25	=25	=25	=25	=25	=25
2.ryy	2.ryy	2.ryy	2.ryy	2.ryy	2.ryy	2.ryy	2.ryy	2.ryy	2.ryy	2.ryy	4..A	2.ryy	2.ryy	4ee	4gg	2.ryy	4ccc#
.	.	.	.	.	.	.	.	.	.	.	.	.	.	2dd	4ff#	.	4ddd
.	.	.	.	.	.	.	.	.	.	.	16D	.	.	.	.	.	.
.	.	.	.	.	.	.	.	.	.	.	8.B'	.	.	.	4ee#	.	4gg#
.	.	.	.	.	.	.	.	.	.	.	16B'	.	.	.	.	.	.
=26	=26	=26	=26	=26	=26	=26	=26	=26	=26	=26	=26	=26	=26	=26	=26	=26	=26
*staff:10	*staff:10	*staff:11	*staff:12	*staff:13	*	*	*	*staff:14	*staff:14	*	*staff:15	*staff:16	*staff:16	*staff:17	*staff:17	*	*staff:18
2.r	2.r	2.r	2.r	2.r	2.ryy	2.ryy	2.ryy	2.r	2.r	2.ryy	8A'	2.r	2.r	8dd'y	8ff#'	2.ryy	8aa'
.	.	.	.	.	.	.	.	.	.	.	8r	.	.	8ryy	8r	.	8r
.	.	.	.	.	.	.	.	.	.	.	4r	.	.	4ryy	4r	.	4r
.	.	.	.	.	.	.	.	.	.	.	8A'	.	.	8e'	8g'y	.	8cc#'
.	.	.	.	.	.	.	.	.	.	.	8r	.	.	8ryy	8r	.	8r
=27	=27	=27	=27	=27	=27	=27	=27	=27	=27	=27	=27	=27	=27	=27	=27	=27	=27
2DD	2D	16f#	16d	2ff#	2.ryy	2.ryy	2.ryy	[2.a	[2.a	2.ryy	2f#	2a	2ff#	[2.a	2ff#	2.ryy	4dd
.	.	16A	16A	.	.	.	.	.	.	.	.	.	.	.	.	.	.
.	.	16f#	16d	.	.	.	.	.	.	.	.	.	.	.	.	.	.
.	.	16A	16A	.	.	.	.	.	.	.	.	.	.	.	.	.	.
.	.	16f#	16d	.	.	.	.	.	.	.	.	.	.	.	.	.	4aa
.	.	16A	16A	.	.	.	.	.	.	.	.	.	.	.	.	.	.
.	.	16d	16d	.	.	.	.	.	.	.	.	.	.	.	.	.	.
.	.	16A	16A	.	.	.	.	.	.	.	.	.	.	.	.	.	.
.	.	.	.	8ff#q	.	.	.	.	.	.	8f#q	.	.	.	8ff#q	.	.
4AAA	4AA	16c#	16g	16ee	.	.	.	.	.	.	16e	4g	4cc#	.	16ee	.	4ccc#
.	.	16d	16f#	16dd	.	.	.	.	.	.	16d	.	.	.	16dd	.	.
.	.	16c#	16g	16ee	.	.	.	.	.	.	16e	.	.	.	16ee	.	.
.	.	16e	16e	16cc#	.	.	.	.	.	.	16c#	.	.	.	16cc#	.	.
=28	=28	=28	=28	=28	=28	=28	=28	=28	=28	=28	=28	=28	=28	=28	=28	=28	=28
4DDD	4DD	4d	4f#	16dd	2.ryy	2.ryy	2.ryy	4a]	4a]	2.ryy	16d	4f#	4dd	4a]	16dd	2.ryy	4ddd
.	.	.	.	16a'	.	.	.	.	.	.	16A'	.	.	.	16a'	.	.
.	.	.	.	16a'	.	.	.	.	.	.	16A'	.	.	.	16a'	.	.
.	.	.	.	16a'	.	.	.	.	.	.	16A'	.	.	.	16a'	.	.
4r	4r	4r	4r	16g#	.	.	.	4r	4r	.	16G#	4ryy	4r	4r	16g#	.	4r
.	.	.	.	16a	.	.	.	.	.	.	16A	.	.	.	16a	.	.
.	.	.	.	16b	.	.	.	.	.	.	16B	.	.	.	16b	.	.
.	.	.	.	16cc#	.	.	.	.	.	.	16c#	.	.	.	16cc#	.	.
4r	4r	4r	4r	16dd	.	.	.	4r	4r	.	16d	4ryy	4r	4r	16dd	.	4r
.	.	.	.	16ee	.	.	.	.	.	.	16e	.	.	.	16ee	.	.
.	.	.	.	16ffn	.	.	.	.	.	.	16fn	.	.	.	16ffn	.	.
.	.	.	.	16ff#	.	.	.	.	.	.	16f#	.	.	.	16ff#	.	.
=29	=29	=29	=29	=29	=29	=29	=29	=29	=29	=29	=29	=29	=29	=29	=29	=29	=29
2CC#	2C#	16A	16e	2gg	2.ryy	2.ryy	2.ryy	[2.a	[2.a	2.ryy	2g	2ee	2gg	[2.a	2gg	2.ryy	4aa
.	.	16e	16A	.	.	.	.	.	.	.	.	.	.	.	.	.	.
.	.	16A	16e	.	.	.	.	.	.	.	.	.	.	.	.	.	.
.	.	16e	16A	.	.	.	.	.	.	.	.	.	.	.	.	.	.
.	.	16A	16e	.	.	.	.	.	.	.	.	.	.	.	.	.	4eee
.	.	16e	16A	.	.	.	.	.	.	.	.	.	.	.	.	.	.
.	.	16A	16e	.	.	.	.	.	.	.	.	.	.	.	.	.	.
.	.	16e	16A	.	.	.	.	.	.	.	.	.	.	.	.	.	.
.	.	.	.	8ggq	.	.	.	.	.	.	8gq	.	.	.	8ggq	.	.
4DD	4D	16A	16d	16ff#	.	.	.	.	.	.	16f#	4dd	4ff#	.	16ff#	.	4ddd
.	.	16a	16c#	16ee	.	.	.	.	.	.	16e	.	.	.	16ee	.	.
.	.	16A	16d	16ff#	.	.	.	.	.	.	16f#	.	.	.	16ff#	.	.
.	.	16a	16f#	16dd	.	.	.	.	.	.	16d	.	.	.	16dd	.	.
=30	=30	=30	=30	=30	=30	=30	=30	=30	=30	=30	=30	=30	=30	=30	=30	=30	=30
4AAA	4AA	4A	4a	16ee	2.ryy	2.ryy	2.ryy	4a]	4a]	2.ryy	16e	4cc#	4ee	4a]	16ee	2.ryy	4ccc#
.	.	.	.	16a'	.	.	.	.	.	.	16A'	.	.	.	16a'	.	.
.	.	.	.	16a'	.	.	.	.	.	.	16A'	.	.	.	16a'	.	.
.	.	.	.	16a'	.	.	.	.	.	.	16A'	.	.	.	16a'	.	.
4r	4r	4r	4r	16g#	.	.	.	4r	4r	.	16G#	4ryy	4r	4r	16g#	.	4r
.	.	.	.	16a	.	.	.	.	.	.	16A	.	.	.	16a	.	.
.	.	.	.	16b	.	.	.	.	.	.	16B	.	.	.	16b	.	.
.	.	.	.	16cc#	.	.	.	.	.	.	16c#	.	.	.	16cc#	.	.
4r	4r	4r	4r	16dd	.	.	.	4r	4r	.	16d	4ryy	4r	4r	16dd	.	4r
.	.	.	.	16ee	.	.	.	.	.	.	16e	.	.	.	16ee	.	.
.	.	.	.	16ff#	.	.	.	.	.	.	16f#	.	.	.	16ff#	.	.
.	.	.	.	16ggn	.	.	.	.	.	.	16gn	.	.	.	16ggn	.	.
=31	=31	=31	=31	=31	=31	=31	=31	=31	=31	=31	=31	=31	=31	=31	=31	=31	=31
*staff:1	*staff:1	*staff:2	*staff:3	*staff:4	*	*	*	*staff:5	*staff:5	*	*staff:6	*staff:7	*staff:7	*staff:8	*staff:8	*staff:9	*staff:9
2FF#	2F#	16dd	16d	2aa	2.ryy	2.ryy	2.ryy	2d	2a	2.ryy	2a	2a	2dd	2dd	2aa	2.dd	2ddd
.	.	16d	16a	.	.	.	.	.	.	.	.	.	.	.	.	.	.
.	.	16dd	16d	.	.	.	.	.	.	.	.	.	.	.	.	.	.
.	.	16d	16a	.	.	.	.	.	.	.	.	.	.	.	.	.	.
.	.	16dd	16d	.	.	.	.	.	.	.	.	.	.	.	.	.	.
.	.	16d	16a	.	.	.	.	.	.	.	.	.	.	.	.	.	.
.	.	16dd	16d	.	.	.	.	.	.	.	.	.	.	.	.	.	.
.	.	16d	16a	.	.	.	.	.	.	.	.	.	.	.	.	.	.
.	.	.	.	8aaq	.	.	.	.	.	.	8aq	.	.	.	8aaq	.	.
4GG	4G	16dd	16b	16gg	.	.	.	4g	4b	.	16g	4b	4ee	16b	16gg	.	8bb
.	.	16d	16a	16ff#	.	.	.	.	.	.	16f#	.	.	16a	16ff#	.	.
.	.	16dd	16b	16gg	.	.	.	.	.	.	16g	.	.	16b	16gg	.	8gg
.	.	16d	16a	16ee	.	.	.	.	.	.	16e	.	.	16g	16ee	.	.
=32	=32	=32	=32	=32	=32	=32	=32	=32	=32	=32	=32	=32	=32	=32	=32	=32	=32
2AA	2A	16a	16f#	2dd	2.ryy	2.ryy	2.ryy	2.a	2.a	2.ryy	2d	2dd	2ff#	2f#	2dd	2dd	2ff#
.	.	16f#	16d	.	.	.	.	.	.	.	.	.	.	.	.	.	.
.	.	16a	16f#	.	.	.	.	.	.	.	.	.	.	.	.	.	.
.	.	16f#	16d	.	.	.	.	.	.	.	.	.	.	.	.	.	.
.	.	16a	16f#	.	.	.	.	.	.	.	.	.	.	.	.	.	.
.	.	16f#	16d	.	.	.	.	.	.	.	.	.	.	.	.	.	.
.	.	16a	16f#	.	.	.	.	.	.	.	.	.	.	.	.	.	.
.	.	16f#	16d	.	.	.	.	.	.	.	.	.	.	.	.	.	.
.	.	.	.	8ff#q	.	.	.	.	.	.	8f#q	.	.	.	8ff#q	.	.
4AAA	4AA	16e	16g	16ee	.	.	.	.	.	.	16e	4cc#	4ee	16g	16ee	4cc#	8gg
.	.	16f#	16f#	16dd	.	.	.	.	.	.	16d	.	.	16f#	16dd	.	.
.	.	16e	16g	16ee	.	.	.	.	.	.	16e	.	.	16g	16ee	.	8ee
.	.	16g	16e	16cc#	.	.	.	.	.	.	16c#	.	.	16e	16cc#	.	.
=33	=33	=33	=33	=33	=33	=33	=33	=33	=33	=33	=33	=33	=33	=33	=33	=33	=33
8DD'	8D'	8f#'	8f#'	16dd	2.ryy	2.ryy	2.ryy	4d	4a	2.ryy	16d	8dd	8dd'	8f#	16dd	8dd'	8dd'
.	.	.	.	16a	.	.	.	.	.	.	16A	.	.	.	16a	.	.
16r	16r	16r	16r	16ee'	.	.	.	.	.	.	16e'	16ee'	16r	16r	16ee'	16r	16r
16AAA'	16AA'	16e'	16g'	16cc#'	.	.	.	.	.	.	16c#'	8dd'y	16gg'	16g	16cc#'	16ccc#'	16ccc#'
8DD'	8D'	8f#'	8f#'	16dd	.	.	.	4ryy	4r	.	16d	.	8ff#'	8f#	16dd	8ddd'	8ddd'
.	.	.	.	16a	.	.	.	.	.	.	16A	16ee'y	.	.	16a	.	.
16r	16r	16r	16r	16ee'	.	.	.	.	.	.	16e'	8dd'y	16r	16r	16ee'	16r	16r
16AAA'	16AA'	16e'	16g'	16cc#'	.	.	.	.	.	.	16c#'	.	16gg'	16g	16cc#'	16ccc#'	16ccc#'
8DD'	8D'	8f#'	8f#'	16dd	.	.	.	4ryy	4r	.	16d	16ee'y	8ff#'	8f#	16dd	8ddd'	8ddd'
.	.	.	.	16a	.	.	.	.	.	.	16A	96ryy	.	.	16a	.	.
.	.	.	.	.	.	.	.	.	.	.	.	96ryy	.	.	.	.	.
.	.	.	.	.	.	.	.	.	.	.	.	96ryy	.	.	.	.	.
.	.	.	.	.	.	.	.	.	.	.	.	96ryy	.	.	.	.	.
.	.	.	.	.	.	.	.	.	.	.	.	96ryy	.	.	.	.	.
.	.	.	.	.	.	.	.	.	.	.	.	96ryy	.	.	.	.	.
16r	16r	16r	16r	16ee'	.	.	.	.	.	.	16e'	96ryy	16r	16r	16ee'	16r	16r
.	.	.	.	.	.	.	.	.	.	.	.	96ryy	.	.	.	.	.
.	.	.	.	.	.	.	.	.	.	.	.	96ryy	.	.	.	.	.
.	.	.	.	.	.	.	.	.	.	.	.	96ryy	.	.	.	.	.
.	.	.	.	.	.	.	.	.	.	.	.	96ryy	.	.	.	.	.
.	.	.	.	.	.	.	.	.	.	.	.	96ryy	.	.	.	.	.
16AAA'	16AA'	16e'	16g'	16cc#'	.	.	.	.	.	.	16c#'	96ryy	16gg'	16g	16cc#'	16ccc#'	16ccc#'
.	.	.	.	.	.	.	.	.	.	.	.	96ryy	.	.	.	.	.
.	.	.	.	.	.	.	.	.	.	.	.	96ryy	.	.	.	.	.
.	.	.	.	.	.	.	.	.	.	.	.	96ryy	.	.	.	.	.
.	.	.	.	.	.	.	.	.	.	.	.	96ryy	.	.	.	.	.
.	.	.	.	.	.	.	.	.	.	.	.	96ryy	.	.	.	.	.
!!WARNING: This measure contained too few data records
=34	=34	=34	=34	=34	=34	=34	=34	=34	=34	=34	=34	=34	=34	=34	=34	=34	=34
8DD	8D	8f#	8f#	8dd	2.ryy	2.ryy	2.ryy	4ryy	4r	2.ryy	8d	8dd	8ff#	8f#	8dd	8ddd	8ddd
8r	8r	8r	8r	8r	.	.	.	.	.	.	8r	8ryy	8r	8ryy	8r	8r	8r
4DD`	4D`	4D` 4A`y 4f#`y	4d` 4a`y 4ff#`y	4d`y 4ff#`y 4ddd`	.	.	.	4d`y	4a`	.	4D`	4dd`y	4ff#`	4ff#`y	4ddd`	4ddd`	4ddd`
4r	4r	4r	4r	4r	.	.	.	4ryy	4r	.	4r	4ryy	4r	4ryy	4r	4r	4r
=35:|	=35:|	=35:|	=35:|	=35:|	=35:|	=35:|	=35:|	=35:|	=35:|	=35:|	=35:|	=35:|	=35:|	=35:|	=35:|	=35:|	=35:|
*>B	*>B	*>B	*>B	*>B	*>B	*>B	*>B	*>B	*>B	*>B	*>B	*>B	*>B	*>B	*>B	*>B	*>B
*staff:13	*staff:14	*staff:15	*staff:16	*staff:17	*	*	*	*	*	*staff:18	*staff:18	*staff:19	*staff:19	*staff:20	*staff:20	*staff:21	*staff:21
8FF'	8Fn'	2.r	16d	[2.aa	2.ryy	2.ryy	2.ryy	2.ryy	2.ryy	2.r	2.r	2.r	2.r	2.r	2.r	2.r	2.r
.	.	.	16A	.	.	.	.	.	.	.	.	.	.	.	.	.	.
16r	16r	.	16e'	.	.	.	.	.	.	.	.	.	.	.	.	.	.
16GG'	16G'	.	16c#'	.	.	.	.	.	.	.	.	.	.	.	.	.	.
8FF'	8F'	.	16d	.	.	.	.	.	.	.	.	.	.	.	.	.	.
.	.	.	16A	.	.	.	.	.	.	.	.	.	.	.	.	.	.
16r	16r	.	16e'	.	.	.	.	.	.	.	.	.	.	.	.	.	.
16GG'	16G'	.	16c#'	.	.	.	.	.	.	.	.	.	.	.	.	.	.
8FF'	8F'	.	16d	.	.	.	.	.	.	.	.	.	.	.	.	.	.
.	.	.	16A	.	.	.	.	.	.	.	.	.	.	.	.	.	.
16r	16r	.	16e'	.	.	.	.	.	.	.	.	.	.	.	.	.	.
16GG'	16G'	.	16c#'	.	.	.	.	.	.	.	.	.	.	.	.	.	.
=36	=36	=36	=36	=36	=36	=36	=36	=36	=36	=36	=36	=36	=36	=36	=36	=36	=36
4FF	4Fn	2.r	16d	8aa]	2.ryy	2.ryy	2.ryy	2.ryy	2.ryy	2.r	2.r	2.r	2.r	2.r	2.r	2.r	2.r
.	.	.	16A	.	.	.	.	.	.	.	.	.	.	.	.	.	.
.	.	.	16e	8gg	.	.	.	.	.	.	.	.	.	.	.	.	.
.	.	.	16A	.	.	.	.	.	.	.	.	.	.	.	.	.	.
4r	4r	.	16fn	8ffn	.	.	.	.	.	.	.	.	.	.	.	.	.
.	.	.	16A	.	.	.	.	.	.	.	.	.	.	.	.	.	.
.	.	.	16g	8ee	.	.	.	.	.	.	.	.	.	.	.	.	.
.	.	.	16A	.	.	.	.	.	.	.	.	.	.	.	.	.	.
4r	4r	.	16f	8dd	.	.	.	.	.	.	.	.	.	.	.	.	.
.	.	.	16A	.	.	.	.	.	.	.	.	.	.	.	.	.	.
.	.	.	16e	8cc#	.	.	.	.	.	.	.	.	.	.	.	.	.
.	.	.	16A	.	.	.	.	.	.	.	.	.	.	.	.	.	.
=37	=37	=37	=37	=37	=37	=37	=37	=37	=37	=37	=37	=37	=37	=37	=37	=37	=37
8FF	8Fn	16A	16d	2.dd	2.ryy	2.ryy	2.ryy	2.ryy	2.ryy	2.r	2.r	2.r	2.r	2.ryy	2.dd	2.r	2.r
.	.	16d	16A	.	.	.	.	.	.	.	.	.	.	.	.	.	.
8FF	8F	16A	16d	.	.	.	.	.	.	.	.	.	.	.	.	.	.
.	.	16d	16A	.	.	.	.	.	.	.	.	.	.	.	.	.	.
8FF	8F	16A	16d	.	.	.	.	.	.	.	.	.	.	.	.	.	.
.	.	16d	16A	.	.	.	.	.	.	.	.	.	.	.	.	.	.
8FF	8F	16A	16d	.	.	.	.	.	.	.	.	.	.	.	.	.	.
.	.	16d	16A	.	.	.	.	.	.	.	.	.	.	.	.	.	.
8FF	8F	16A	16d	.	.	.	.	.	.	.	.	.	.	.	.	.	.
.	.	16d	16A	.	.	.	.	.	.	.	.	.	.	.	.	.	.
8FF	8F	16A	16d	.	.	.	.	.	.	.	.	.	.	.	.	.	.
.	.	16d	16A	.	.	.	.	.	.	.	.	.	.	.	.	.	.
=38	=38	=38	=38	=38	=38	=38	=38	=38	=38	=38	=38	=38	=38	=38	=38	=38	=38
8FF	8Fn	16A	16cn	2.ee-	2.ryy	2.ryy	2.ryy	2.ryy	2.ryy	2.r	2.r	2.r	2.r	2.cc	2.ee-	2.r	2.r
.	.	16cn	16A	.	.	.	.	.	.	.	.	.	.	.	.	.	.
8FF	8F	16A	16c	.	.	.	.	.	.	.	.	.	.	.	.	.	.
.	.	16c	16A	.	.	.	.	.	.	.	.	.	.	.	.	.	.
8FF	8F	16A	16c	.	.	.	.	.	.	.	.	.	.	.	.	.	.
.	.	16c	16A	.	.	.	.	.	.	.	.	.	.	.	.	.	.
8FF	8F	16A	16c	.	.	.	.	.	.	.	.	.	.	.	.	.	.
.	.	16c	16A	.	.	.	.	.	.	.	.	.	.	.	.	.	.
8FF	8F	16A	16c	.	.	.	.	.	.	.	.	.	.	.	.	.	.
.	.	16c	16A	.	.	.	.	.	.	.	.	.	.	.	.	.	.
8FF	8F	16A	16c	.	.	.	.	.	.	.	.	.	.	.	.	.	.
.	.	16c	16A	.	.	.	.	.	.	.	.	.	.	.	.	.	.
=39	=39	=39	=39	=39	=39	=39	=39	=39	=39	=39	=39	=39	=39	=39	=39	=39	=39
8EE	8E 8c	16A	16c	2.een	2.ryy	2.ryy	2.ryy	2.ryy	2.ryy	2.A	2.c	2.cc	2.ee	2.cc	2.een	2.aa	2.aa
.	.	16c	16A	.	.	.	.	.	.	.	.	.	.	.	.	.	.
8EE	8E 8c	16A	16c	.	.	.	.	.	.	.	.	.	.	.	.	.	.
.	.	16c	16A	.	.	.	.	.	.	.	.	.	.	.	.	.	.
8EE	8E 8c	16A	16c	.	.	.	.	.	.	.	.	.	.	.	.	.	.
.	.	16c	16A	.	.	.	.	.	.	.	.	.	.	.	.	.	.
8EE	8E 8c	16A	16c	.	.	.	.	.	.	.	.	.	.	.	.	.	.
.	.	16c	16A	.	.	.	.	.	.	.	.	.	.	.	.	.	.
8EE	8E 8c	16A	16c	.	.	.	.	.	.	.	.	.	.	.	.	.	.
.	.	16c	16A	.	.	.	.	.	.	.	.	.	.	.	.	.	.
8EE	8E 8c	16A	16c	.	.	.	.	.	.	.	.	.	.	.	.	.	.
.	.	16c	16A	.	.	.	.	.	.	.	.	.	.	.	.	.	.
=40	=40	=40	=40	=40	=40	=40	=40	=40	=40	=40	=40	=40	=40	=40	=40	=40	=40
*staff:1	*staff:2	*staff:3	*staff:4	*staff:5	*staff:6	*staff:7	*staff:7	*staff:8	*staff:8	*staff:9	*staff:9	*staff:10	*staff:10	*staff:11	*staff:11	*staff:12	*staff:12
8EE	8E 8c	16B-	16c	[2.gg	16C	[2.cc	[2.cc	2.g	2.g	2.C	2.B-	2.cc	2.bb-	2.b-	[2.gg	2.bb-	2.bb-
.	.	16c	16B-	.	16C	.	.	.	.	.	.	.	.	.	.	.	.
8EE	8E 8c	16B-	16c	.	16C	.	.	.	.	.	.	.	.	.	.	.	.
.	.	16c	16B-	.	16C	.	.	.	.	.	.	.	.	.	.	.	.
8EE	8E 8c	16B-	16c	.	16C	.	.	.	.	.	.	.	.	.	.	.	.
.	.	16c	16B-	.	16C	.	.	.	.	.	.	.	.	.	.	.	.
8EE	8E 8c	16B-	16c	.	16C	.	.	.	.	.	.	.	.	.	.	.	.
.	.	16c	16B-	.	16C	.	.	.	.	.	.	.	.	.	.	.	.
8EE	8E 8c	16B-	16c	.	16C	.	.	.	.	.	.	.	.	.	.	.	.
.	.	16c	16B-	.	16C	.	.	.	.	.	.	.	.	.	.	.	.
8EE	8E 8c	16B-	16c	.	16C	.	.	.	.	.	.	.	.	.	.	.	.
.	.	16c	16B-	.	16C	.	.	.	.	.	.	.	.	.	.	.	.
=41	=41	=41	=41	=41	=41	=41	=41	=41	=41	=41	=41	=41	=41	=41	=41	=41	=41
8FF	8Fn	16A	16c	4gg]	4C	4cc]	4cc]	2.a	2.a	4Fn	4A	4cc	4aa	4a	4gg]	4aa	4aa
.	.	16c	16A	.	.	.	.	.	.	.	.	.	.	.	.	.	.
8FF	8F	16A	16c	.	.	.	.	.	.	.	.	.	.	.	.	.	.
.	.	16c	16A	.	.	.	.	.	.	.	.	.	.	.	.	.	.
8FF	8F	16A	16d	4ff#	4r	4dd	4dd	.	.	4d	4fn	4dd	4ffn	4dd	4ffn	4ffn	4ddd
.	.	16d	16A	.	.	.	.	.	.	.	.	.	.	.	.	.	.
8FF	8F	16A	16d	.	.	.	.	.	.	.	.	.	.	.	.	.	.
.	.	16d	16A	.	.	.	.	.	.	.	.	.	.	.	.	.	.
8FF#	8F#	16A	16c	4ee	4r	4cc	4ee	.	.	4c	4e	4cc	4ee	4cc	4ee	4ee	4ccc
.	.	16c	16A	.	.	.	.	.	.	.	.	.	.	.	.	.	.
8FF#	8F#	16A	16c	.	.	.	.	.	.	.	.	.	.	.	.	.	.
.	.	16c	16A	.	.	.	.	.	.	.	.	.	.	.	.	.	.
=42	=42	=42	=42	=42	=42	=42	=42	=42	=42	=42	=42	=42	=42	=42	=42	=42	=42
4.GG	4.G	16G	16c	16ffn	16GG	4cc	4ee	4.g	4.g	4c	4e	16dd	16ffn	4cc	16ffn	16ffn	16ddd
.	.	16c	16G	16ee	16GG	.	.	.	.	.	.	16cc	16ee	.	16ee	16ee	16ccc
.	.	16G	16c	16dd	16GG	.	.	.	.	.	.	16bn	16dd	.	16dd	16dd	16bb
.	.	16c	16G	16ee	16GG	.	.	.	.	.	.	16cc	16ee	.	16ee	16ee	16ccc
.	.	16G	16Bn	8dd	4GG	4g	4dd	.	.	8Bn	8d	8b	8dd	8bn	8dd`	8dd`y	8bb`
.	.	16Bn	16G	.	.	.	.	.	.	.	.	.	.	.	.	.	.
8FF	8Fn	16G	16B	8r	.	.	.	8G	8g	8B	8d	8b	8dd	8ryy	8r	8ryy	8r
.	.	16B	16G	.	.	.	.	.	.	.	.	.	.	.	.	.	.
8EE	8E	16G	16e	4r	4r	4ryy	4r	8G	8g	8c	8e	8cc	8ee	4ryy	4r	4ryy	4r
.	.	16c	16G	.	.	.	.	.	.	.	.	.	.	.	.	.	.
8DD	8D	16G	16fn	.	.	.	.	8G	8g	8d	8fn	8dd	8ff	.	.	.	.
.	.	16d	16G	.	.	.	.	.	.	.	.	.	.	.	.	.	.
=43	=43	=43	=43	=43	=43	=43	=43	=43	=43	=43	=43	=43	=43	=43	=43	=43	=43
2CC	2C	16c	16e	2ee	4C	2cc	2ee	2.G	[2.g	4c	2e	4cc	2ee	2.ryy	[2.gg	2.r	2.r
.	.	16G	16G	.	.	.	.	.	.	.	.	.	.	.	.	.	.
.	.	16c	16e	.	.	.	.	.	.	.	.	.	.	.	.	.	.
.	.	16G	16G	.	.	.	.	.	.	.	.	.	.	.	.	.	.
.	.	16c	16e	.	4r	.	.	.	.	4r	.	4r	.	.	.	.	.
.	.	16G	16G	.	.	.	.	.	.	.	.	.	.	.	.	.	.
.	.	16c	16e	.	.	.	.	.	.	.	.	.	.	.	.	.	.
.	.	16G	16G	.	.	.	.	.	.	.	.	.	.	.	.	.	.
.	.	.	8gq	8eeq	.	.	.	.	.	.	8eq	.	8eeq	.	.	.	.
4GG	4G	16B	16fn	16dd	4GG	4g	4dd	.	.	4r	16d	4r	16dd	.	.	.	.
.	.	16c	16e	16cc	.	.	.	.	.	.	16c	.	16cc	.	.	.	.
.	.	16B	16f	16dd	.	.	.	.	.	.	16d	.	16dd	.	.	.	.
.	.	16g	16d	16b	.	.	.	.	.	.	16B	.	16b	.	.	.	.
=44	=44	=44	=44	=44	=44	=44	=44	=44	=44	=44	=44	=44	=44	=44	=44	=44	=44
4CC	4C	4c	4e	16cc	4C	4e	4cc	2.G	2.g]	2.ryy	16c	2.ryy	16cc	2.ryy	2.gg_	2.r	2.r
.	.	.	.	16g'	.	.	.	.	.	.	16G'	.	16g'	.	.	.	.
.	.	.	.	16g'	.	.	.	.	.	.	16G'	.	16g'	.	.	.	.
.	.	.	.	16g'	.	.	.	.	.	.	16G'	.	16g'	.	.	.	.
4r	4r	4r	4r	16f#X	4r	4ryy	4r	.	.	.	16F#X	.	16f#X	.	.	.	.
.	.	.	.	16g	.	.	.	.	.	.	16G	.	16g	.	.	.	.
.	.	.	.	16a	.	.	.	.	.	.	16A	.	16a	.	.	.	.
.	.	.	.	16b	.	.	.	.	.	.	16B	.	16b	.	.	.	.
4r	4r	4r	4r	16cc	4r	4ryy	4r	.	.	.	16c	.	16cc	.	.	.	.
.	.	.	.	16dd	.	.	.	.	.	.	16d	.	16dd	.	.	.	.
.	.	.	.	16ee-	.	.	.	.	.	.	16e-	.	16ee-	.	.	.	.
.	.	.	.	16een	.	.	.	.	.	.	16en	.	16een	.	.	.	.
=45	=45	=45	=45	=45	=45	=45	=45	=45	=45	=45	=45	=45	=45	=45	=45	=45	=45
2BBB	2BB	16G	16d	2ffn	4GG	2g	2dd	2.G	[2.g	2.ryy	2fn	2.ryy	2ffn	2.ryy	2.gg_	2.r	2.r
.	.	16d	16G	.	.	.	.	.	.	.	.	.	.	.	.	.	.
.	.	16G	16d	.	.	.	.	.	.	.	.	.	.	.	.	.	.
.	.	16d	16G	.	.	.	.	.	.	.	.	.	.	.	.	.	.
.	.	16G	16d	.	4r	.	.	.	.	.	.	.	.	.	.	.	.
.	.	16d	16G	.	.	.	.	.	.	.	.	.	.	.	.	.	.
.	.	16G	16d	.	.	.	.	.	.	.	.	.	.	.	.	.	.
.	.	16d	16G	.	.	.	.	.	.	.	.	.	.	.	.	.	.
.	.	.	.	8ffq	.	.	.	.	.	.	8fq	.	8ffq	.	.	.	.
4CC	4C	16G	16c	16ee	4C	4cc	4ee	.	.	.	16e	.	16ee	.	.	.	.
.	.	16d	16B	16dd	.	.	.	.	.	.	16d	.	16dd	.	.	.	.
.	.	16c	16c	16ee	.	.	.	.	.	.	16e	.	16ee	.	.	.	.
.	.	16c'	16e	16cc	.	.	.	.	.	.	16c	.	16cc	.	.	.	.
=46	=46	=46	=46	=46	=46	=46	=46	=46	=46	=46	=46	=46	=46	=46	=46	=46	=46
4GGG	4GG	4G	4B	16dd	4GG	4g	4dd	2.G	2.g]	2.ryy	16d	2.ryy	16dd	2.ryy	2.gg]	2.r	2.r
.	.	.	.	16g'	.	.	.	.	.	.	16G'	.	16g'	.	.	.	.
.	.	.	.	16g'	.	.	.	.	.	.	16G'	.	16g'	.	.	.	.
.	.	.	.	16g'	.	.	.	.	.	.	16G'	.	16g'	.	.	.	.
4r	4r	4r	4r	16f#X	4r	4ryy	4r	.	.	.	16F#X	.	16f#X	.	.	.	.
.	.	.	.	16g	.	.	.	.	.	.	16G	.	16g	.	.	.	.
.	.	.	.	16a	.	.	.	.	.	.	16A	.	16a	.	.	.	.
.	.	.	.	16b	.	.	.	.	.	.	16B	.	16b	.	.	.	.
4r	4r	4r	4r	16cc	4r	4ryy	4r	.	.	.	16c	.	16cc	.	.	.	.
.	.	.	.	16dd	.	.	.	.	.	.	16d	.	16dd	.	.	.	.
.	.	.	.	16ee	.	.	.	.	.	.	16e	.	16ee	.	.	.	.
.	.	.	.	16ffn	.	.	.	.	.	.	16fn	.	16ffn	.	.	.	.
=47	=47	=47	=47	=47	=47	=47	=47	=47	=47	=47	=47	=47	=47	=47	=47	=47	=47
16EE	16E 16B-	24g'	24c#'	24gg'	4GG	2g	2gg	2.g	2.g	2B-	2B-	2.cc#	[2gg	2.cc#	[2gg	2gg	2.ccc#
.	.	24g'	24c#'	24ee'	.	.	.	.	.	.	.	.	.	.	.	.	.
16EE	16E 16B-	.	.	.	.	.	.	.	.	.	.	.	.	.	.	.	.
.	.	24g'	24c#'	24dd'	.	.	.	.	.	.	.	.	.	.	.	.	.
16EE	16E 16B-	24g'	24c#'	24cc#'	.	.	.	.	.	.	.	.	.	.	.	.	.
.	.	24g'	24c#'	24b-'	.	.	.	.	.	.	.	.	.	.	.	.	.
16EE	16E 16B-	.	.	.	.	.	.	.	.	.	.	.	.	.	.	.	.
.	.	24g'	24c#'	24a'	.	.	.	.	.	.	.	.	.	.	.	.	.
16EE	16E 16B-	16g	16c#	24g'	4r	.	.	.	.	.	.	.	.	.	.	.	.
.	.	.	.	24fn'	.	.	.	.	.	.	.	.	.	.	.	.	.
16EE	16E 16B-	16g	16c#	.	.	.	.	.	.	.	.	.	.	.	.	.	.
.	.	.	.	24e'	.	.	.	.	.	.	.	.	.	.	.	.	.
16EE	16E 16B-	16g	16c#	24d'	.	.	.	.	.	.	.	.	.	.	.	.	.
.	.	.	.	24c#X'	.	.	.	.	.	.	.	.	.	.	.	.	.
16EE	16E 16B-	16g	16c#	.	.	.	.	.	.	.	.	.	.	.	.	.	.
.	.	.	.	24B-X'	.	.	.	.	.	.	.	.	.	.	.	.	.
16EE	16E 16A	16A 16g	16c#	24A'	4r	4ee	4ee	.	.	4A	4A	.	8gg]	.	8gg]	4aa	.
.	.	.	.	24c#'	.	.	.	.	.	.	.	.	.	.	.	.	.
16EE	16E 16A	16A 16g	16c#	.	.	.	.	.	.	.	.	.	.	.	.	.	.
.	.	.	.	24e'	.	.	.	.	.	.	.	.	.	.	.	.	.
16EE	16E 16A	16A 16g	16c#	24g'	.	.	.	.	.	.	.	.	16ffn	.	16ffn	.	.
.	.	.	.	24f'	.	.	.	.	.	.	.	.	.	.	.	.	.
16EE	16E 16A	16A 16g	16c#	.	.	.	.	.	.	.	.	.	16ee	.	16ee	.	.
.	.	.	.	24e'	.	.	.	.	.	.	.	.	.	.	.	.	.
=48	=48	=48	=48	=48	=48	=48	=48	=48	=48	=48	=48	=48	=48	=48	=48	=48	=48
16FF	16Fn 16A	16A 16fn	16d	24d'	2.r	4dd	4dd	2.a	2.a	2.A	2.A	2.dd	2.dd	8dd	2.dd	2.aa	2.ddd
.	.	.	.	24aa'	.	.	.	.	.	.	.	.	.	.	.	.	.
16FF	16Fn 16A	16A 16fn	16d	.	.	.	.	.	.	.	.	.	.	.	.	.	.
.	.	.	.	24gg'	.	.	.	.	.	.	.	.	.	.	.	.	.
16FF	16Fn 16A	16A 16fn	16d	24ffn'	.	.	.	.	.	.	.	.	.	8a	.	.	.
.	.	.	.	24ee'	.	.	.	.	.	.	.	.	.	.	.	.	.
16FF	16Fn 16A	16A 16fn	16d	.	.	.	.	.	.	.	.	.	.	.	.	.	.
.	.	.	.	24dd'	.	.	.	.	.	.	.	.	.	.	.	.	.
16FF	16F 16A	16A 16f	16d	24cc#	.	4r	4r	.	.	.	.	.	.	2a	.	.	.
.	.	.	.	24dd	.	.	.	.	.	.	.	.	.	.	.	.	.
16FF	16F 16A	16A 16f	16d	.	.	.	.	.	.	.	.	.	.	.	.	.	.
.	.	.	.	24b-	.	.	.	.	.	.	.	.	.	.	.	.	.
16FF	16F 16A	16A 16f	16d	24a	.	.	.	.	.	.	.	.	.	.	.	.	.
.	.	.	.	24g	.	.	.	.	.	.	.	.	.	.	.	.	.
16FF	16F 16A	16A 16f	16d	.	.	.	.	.	.	.	.	.	.	.	.	.	.
.	.	.	.	24fn	.	.	.	.	.	.	.	.	.	.	.	.	.
16FF	16F 16A	16A 16f	16d	24e	.	4r	4r	.	.	.	.	.	.	.	.	.	.
.	.	.	.	24d	.	.	.	.	.	.	.	.	.	.	.	.	.
16FF	16F 16A	16A 16f	16d	.	.	.	.	.	.	.	.	.	.	.	.	.	.
.	.	.	.	24c#X	.	.	.	.	.	.	.	.	.	.	.	.	.
16FF	16F 16A	16A 16f	16d	24d	.	.	.	.	.	.	.	.	.	.	.	.	.
.	.	.	.	24f	.	.	.	.	.	.	.	.	.	.	.	.	.
16FF	16F 16A	16A 16f	16d	.	.	.	.	.	.	.	.	.	.	.	.	.	.
.	.	.	.	24a	.	.	.	.	.	.	.	.	.	.	.	.	.
=49	=49	=49	=49	=49	=49	=49	=49	=49	=49	=49	=49	=49	=49	=49	=49	=49	=49
*staff:11	*staff:12	*staff:13	*staff:14	*staff:15	*	*staff:16	*staff:16	*staff:17	*staff:17	*staff:18	*staff:18	*staff:19	*staff:19	*staff:20	*staff:20	*staff:21	*staff:21
16FF#X	16F#X 16c	16a	16d#	24aa	2.ryy	2.r	2.r	2.a	2.a	2c	2c	2.dd#	[2aa	2.dd#	[2aa	2aa	2.ddd#
.	.	.	.	24ff#X	.	.	.	.	.	.	.	.	.	.	.	.	.
16FF#X	16F#X 16c	16a	16d#	.	.	.	.	.	.	.	.	.	.	.	.	.	.
.	.	.	.	24ee	.	.	.	.	.	.	.	.	.	.	.	.	.
16FF#X	16F#X 16c	16a	16d#	24dd#	.	.	.	.	.	.	.	.	.	.	.	.	.
.	.	.	.	24ccn	.	.	.	.	.	.	.	.	.	.	.	.	.
16FF#X	16F#X 16c	16a	16d#	.	.	.	.	.	.	.	.	.	.	.	.	.	.
.	.	.	.	24b	.	.	.	.	.	.	.	.	.	.	.	.	.
16FF#	16F# 16c	16a	16d#	24a	.	.	.	.	.	.	.	.	.	.	.	.	.
.	.	.	.	24g	.	.	.	.	.	.	.	.	.	.	.	.	.
16FF#	16F# 16c	16a	16d#	.	.	.	.	.	.	.	.	.	.	.	.	.	.
.	.	.	.	24f#X	.	.	.	.	.	.	.	.	.	.	.	.	.
16FF#	16F# 16c	16a	16d#	24e	.	.	.	.	.	.	.	.	.	.	.	.	.
.	.	.	.	24d#X	.	.	.	.	.	.	.	.	.	.	.	.	.
16FF#	16F# 16c	16a	16d#	.	.	.	.	.	.	.	.	.	.	.	.	.	.
.	.	.	.	24cn	.	.	.	.	.	.	.	.	.	.	.	.	.
16FF#	16F# 16Bn	16B 16a	16d#	24B	.	.	.	.	.	4Bn	4Bn	.	8aa]	.	8aa]	4bb	.
.	.	.	.	24d#	.	.	.	.	.	.	.	.	.	.	.	.	.
16FF#	16F# 16Bn	16B 16a	16d#	.	.	.	.	.	.	.	.	.	.	.	.	.	.
.	.	.	.	24f#	.	.	.	.	.	.	.	.	.	.	.	.	.
16FF#	16F# 16Bn	16B 16a	16d#	24a	.	.	.	.	.	.	.	.	16gg	.	16gg	.	.
.	.	.	.	24g	.	.	.	.	.	.	.	.	.	.	.	.	.
16FF#	16F# 16Bn	16B 16a	16d#	.	.	.	.	.	.	.	.	.	16ff#X	.	16ff#X	.	.
.	.	.	.	24f#	.	.	.	.	.	.	.	.	.	.	.	.	.
=50	=50	=50	=50	=50	=50	=50	=50	=50	=50	=50	=50	=50	=50	=50	=50	=50	=50
16GG	16G 16B	16B 16g	16e	24e	2.ryy	2.r	2.r	2.b	2.b	2.B	2.B	2.ee	2.ee	8ee	2.ee	2.bb	2.eee
.	.	.	.	24bb	.	.	.	.	.	.	.	.	.	.	.	.	.
16GG	16G 16B	16B 16g	16e	.	.	.	.	.	.	.	.	.	.	.	.	.	.
.	.	.	.	24aa	.	.	.	.	.	.	.	.	.	.	.	.	.
16GG	16G 16B	16B 16g	16e	24gg	.	.	.	.	.	.	.	.	.	8b	.	.	.
.	.	.	.	24ff#	.	.	.	.	.	.	.	.	.	.	.	.	.
16GG	16G 16B	16B 16g	16e	.	.	.	.	.	.	.	.	.	.	.	.	.	.
.	.	.	.	24ee	.	.	.	.	.	.	.	.	.	.	.	.	.
16GG	16G 16B	16B 16g	16e	24dd#	.	.	.	.	.	.	.	.	.	2b	.	.	.
.	.	.	.	24ee	.	.	.	.	.	.	.	.	.	.	.	.	.
16GG	16G 16B	16B 16g	16e	.	.	.	.	.	.	.	.	.	.	.	.	.	.
.	.	.	.	24ccn	.	.	.	.	.	.	.	.	.	.	.	.	.
16GG	16G 16B	16B 16g	16e	24b	.	.	.	.	.	.	.	.	.	.	.	.	.
.	.	.	.	24a	.	.	.	.	.	.	.	.	.	.	.	.	.
16GG	16G 16B	16B 16g	16e	.	.	.	.	.	.	.	.	.	.	.	.	.	.
.	.	.	.	24g	.	.	.	.	.	.	.	.	.	.	.	.	.
16GG	16G 16B	16B 16g	16e	24f#	.	.	.	.	.	.	.	.	.	.	.	.	.
.	.	.	.	24e	.	.	.	.	.	.	.	.	.	.	.	.	.
16GG	16G 16B	16B 16g	16e	.	.	.	.	.	.	.	.	.	.	.	.	.	.
.	.	.	.	24d#X	.	.	.	.	.	.	.	.	.	.	.	.	.
16GG	16G 16B	16B 16g	16e	24e	.	.	.	.	.	.	.	.	.	.	.	.	.
.	.	.	.	24g	.	.	.	.	.	.	.	.	.	.	.	.	.
16GG	16G 16B	16B 16g	16e	.	.	.	.	.	.	.	.	.	.	.	.	.	.
.	.	.	.	24b	.	.	.	.	.	.	.	.	.	.	.	.	.
=51	=51	=51	=51	=51	=51	=51	=51	=51	=51	=51	=51	=51	=51	=51	=51	=51	=51
16CC	16C	24g	16A#	24ee	2.ryy	2c	2cc	2.g	2.g	8g'	8g'	2ee	2gg	2.ee	2.aa#	2eee	2eee
.	.	24g	.	24ee	.	.	.	.	.	.	.	.	.	.	.	.	.
16CC	16C	.	16A#	.	.	.	.	.	.	.	.	.	.	.	.	.	.
.	.	24g	.	24ee	.	.	.	.	.	.	.	.	.	.	.	.	.
16CC	16C	24f#	16A#	24ff#	.	.	.	.	.	8f#'	8f#'	.	.	.	.	.	.
.	.	24f#	.	24ff#	.	.	.	.	.	.	.	.	.	.	.	.	.
16CC	16C	.	16A#	.	.	.	.	.	.	.	.	.	.	.	.	.	.
.	.	24f#	.	24ff#	.	.	.	.	.	.	.	.	.	.	.	.	.
16CC	16C	16e	16A#	24gg	.	.	.	.	.	2e	2e	.	.	.	.	.	.
.	.	.	.	24gg	.	.	.	.	.	.	.	.	.	.	.	.	.
16CC	16C	16e	16A#	.	.	.	.	.	.	.	.	.	.	.	.	.	.
.	.	.	.	24gg	.	.	.	.	.	.	.	.	.	.	.	.	.
16CC	16C	16e	16A#	24ee	.	.	.	.	.	.	.	.	.	.	.	.	.
.	.	.	.	24ee	.	.	.	.	.	.	.	.	.	.	.	.	.
16CC	16C	16e	16A#	.	.	.	.	.	.	.	.	.	.	.	.	.	.
.	.	.	.	24ee	.	.	.	.	.	.	.	.	.	.	.	.	.
16CC	16C	16e	16e	24cc	.	4ryy	4r	.	.	.	.	4ee	4ee	.	.	4aa#	4aa#
.	.	.	.	24cc	.	.	.	.	.	.	.	.	.	.	.	.	.
16CC	16C	16e	16e	.	.	.	.	.	.	.	.	.	.	.	.	.	.
.	.	.	.	24cc	.	.	.	.	.	.	.	.	.	.	.	.	.
16CC	16C	16e	16e	24a#	.	.	.	.	.	.	.	.	.	.	.	.	.
.	.	.	.	24a#	.	.	.	.	.	.	.	.	.	.	.	.	.
16CC	16C	16e	16e	.	.	.	.	.	.	.	.	.	.	.	.	.	.
.	.	.	.	24a#	.	.	.	.	.	.	.	.	.	.	.	.	.
=52	=52	=52	=52	=52	=52	=52	=52	=52	=52	=52	=52	=52	=52	=52	=52	=52	=52
*staff:1	*staff:2	*staff:3	*staff:4	*staff:5	*	*	*	*staff:6	*staff:6	*staff:7	*staff:7	*staff:8	*staff:8	*staff:9	*staff:9	*staff:10	*staff:10
16BBB	16BB	24f#	24d#	24b	2.ryy	2.ryy	2.ryy	2.B	2.b	8d#'y	8f#'	8dd#'y	8ff#'	8dd#'y	8bb'	8bb'	8bb'
.	.	24f#	24d#	24b	.	.	.	.	.	.	.	.	.	.	.	.	.
16BBB	16BB	.	.	.	.	.	.	.	.	.	.	.	.	.	.	.	.
.	.	24f#	24d#	24b	.	.	.	.	.	.	.	.	.	.	.	.	.
16BBB	16BB	24g	24e	24a#	.	.	.	.	.	8e'y	8g'	8ee'y	8gg'	8ee'y	8gg'	8aa#'	8aa#'
.	.	24g	24e	24a#	.	.	.	.	.	.	.	.	.	.	.	.	.
16BBB	16BB	.	.	.	.	.	.	.	.	.	.	.	.	.	.	.	.
.	.	24g	24e	24a#	.	.	.	.	.	.	.	.	.	.	.	.	.
16BBB	16BB	24f#	24d#	24b	.	.	.	.	.	8d#'y	8f#'	8dd#'y	8ff#'	8dd#'y	8ff#'	8bb'	8bb'
.	.	24f#	24d#	24b	.	.	.	.	.	.	.	.	.	.	.	.	.
16BBB	16BB	.	.	.	.	.	.	.	.	.	.	.	.	.	.	.	.
.	.	24f#	24d#	24b	.	.	.	.	.	.	.	.	.	.	.	.	.
16BBB	16BB	24g	24e	24a#	.	.	.	.	.	8e'y	8g'	8ee'y	8gg'	8ee'y	8gg'	8aa#'	8aa#'
.	.	24g	24e	24a#	.	.	.	.	.	.	.	.	.	.	.	.	.
16BBB	16BB	.	.	.	.	.	.	.	.	.	.	.	.	.	.	.	.
.	.	24g	24e	24a#	.	.	.	.	.	.	.	.	.	.	.	.	.
16BBB	16BB	24f#	24d#	24b	.	.	.	.	.	8d#'y	8f#'	8dd#'y	8ff#'	8dd#'y	8ff#'	8bb'	8bb'
.	.	24f#	24d#	24b	.	.	.	.	.	.	.	.	.	.	.	.	.
16BBB	16BB	.	.	.	.	.	.	.	.	.	.	.	.	.	.	.	.
.	.	24f#	24d#	24b	.	.	.	.	.	.	.	.	.	.	.	.	.
16BBB	16BB	24g	24e	24a#	.	.	.	.	.	8e'y	8g'	8ee'y	8gg'	8ee'y	8gg'	8aa#'	8aa#'
.	.	24g	24e	24a#	.	.	.	.	.	.	.	.	.	.	.	.	.
16BBB	16BB	.	.	.	.	.	.	.	.	.	.	.	.	.	.	.	.
.	.	24g	24e	24a#	.	.	.	.	.	.	.	.	.	.	.	.	.
=53	=53	=53	=53	=53	=53	=53	=53	=53	=53	=53	=53	=53	=53	=53	=53	=53	=53
4BBB'	4BB'	4f#'	4d#'	4b'	2.ryy	2.ryy	2.ryy	4B'	4b'y	4d#'y	4f#'	4dd#'y	4ff#'	4dd#'y	4ff#'	4bb'	4bb'
4BBB'	4B'	4B'y 4f#'y 4b'	4B' 4f#'y 4b'y	4f#'y 4dd#'y 4bb'	.	.	.	4B'	4b'y	4BB'	4BB'	4b'y	4bb'	4b'y	4bb'	4bb'	4bb'
4r;	4r;	4r;	4r;	4r;	.	.	.	4ryy	4r;	4ryy	4r;	4ryy	4r;	4ryy	4r;	4r;	4r;
=54	=54	=54	=54	=54	=54	=54	=54	=54	=54	=54	=54	=54	=54	=54	=54	=54	=54
2.r	4r	4r	4r	4..g	2.ryy	2.ryy	2.ryy	2.r	2.r	2.r	2.r	2.r	2.r	2.r	2.r	2.r	2.r
.	4GG'	4G'	4B'	.	.	.	.	.	.	.	.	.	.	.	.	.	.
.	.	.	.	16d	.	.	.	.	.	.	.	.	.	.	.	.	.
.	4G'	4G'	4B'	8.b'	.	.	.	.	.	.	.	.	.	.	.	.	.
.	.	.	.	16b'	.	.	.	.	.	.	.	.	.	.	.	.	.
=55	=55	=55	=55	=55	=55	=55	=55	=55	=55	=55	=55	=55	=55	=55	=55	=55	=55
2.r	2c	2c	2e	4b	2.ryy	2.ryy	2.ryy	2.r	2.r	2.r	2.r	2.r	2.r	2.r	2.r	2.r	2.r
.	.	.	.	4a	.	.	.	.	.	.	.	.	.	.	.	.	.
.	8.B	8.B	8.d	8.g	.	.	.	.	.	.	.	.	.	.	.	.	.
.	16B-	16B-	16c#	16g'	.	.	.	.	.	.	.	.	.	.	.	.	.
=56	=56	=56	=56	=56	=56	=56	=56	=56	=56	=56	=56	=56	=56	=56	=56	=56	=56
2.DD	2A	2A	2cn	4g	2.ryy	2.ryy	2.ryy	2.r	2.r	2.r	2.r	2.r	2.r	2.r	2.r	2.r	2.r
.	.	.	.	8.f#	.	.	.	.	.	.	.	.	.	.	.	.	.
.	.	.	.	16g'	.	.	.	.	.	.	.	.	.	.	.	.	.
.	4G	4G	4Bn	8.gT	.	.	.	.	.	.	.	.	.	.	.	.	.
.	.	.	.	32f#	.	.	.	.	.	.	.	.	.	.	.	.	.
.	.	.	.	32g	.	.	.	.	.	.	.	.	.	.	.	.	.
=57	=57	=57	=57	=57	=57	=57	=57	=57	=57	=57	=57	=57	=57	=57	=57	=57	=57
.	.	.	.	16f#Q	.	.	.	.	.	.	.	.	.	.	.	.	.
.	.	.	.	16gQ	.	.	.	.	.	.	.	.	.	.	.	.	.
8DD'	8D'	8F#'	8A'	8a'	2.ryy	2.ryy	2.ryy	2.r	2.r	2.r	2.r	2.r	2.r	4ryy	4r	2.ryy	4r
8r	8r	8r	8r	8r	.	.	.	.	.	.	.	.	.	.	.	.	.
4r	4r	4r	4r	4r	.	.	.	.	.	.	.	.	.	4ryy	4r	.	4r
4r	4r	4r	4r	4r	.	.	.	.	.	.	.	.	.	8.b	8.dd	.	8.gg'
.	.	.	.	.	.	.	.	.	.	.	.	.	.	16b-	16cc#	.	16gg'
=58	=58	=58	=58	=58	=58	=58	=58	=58	=58	=58	=58	=58	=58	=58	=58	=58	=58
*	*staff:5	*staff:6	*staff:7	*staff:8	*	*	*	*	*	*	*staff:9	*	*	*staff:10	*staff:10	*	*staff:11
2.ryy	2.r	2.r	2.r	2.r	2.ryy	2.ryy	2.ryy	2.ryy	2.ryy	2.ryy	2.d	2.ryy	2.ryy	2a	2ccn	2.ryy	4gg
.	.	.	.	.	.	.	.	.	.	.	.	.	.	.	.	.	8.ff#
.	.	.	.	.	.	.	.	.	.	.	.	.	.	.	.	.	16gg'
.	.	.	.	.	.	.	.	.	.	.	.	.	.	4g	4bn	.	8.ggT
.	.	.	.	.	.	.	.	.	.	.	.	.	.	.	.	.	32ff#
.	.	.	.	.	.	.	.	.	.	.	.	.	.	.	.	.	32gg
=59	=59	=59	=59	=59	=59	=59	=59	=59	=59	=59	=59	=59	=59	=59	=59	=59	=59
.	.	.	.	.	.	.	.	.	.	.	.	.	.	.	.	.	16ff#Q
.	.	.	.	.	.	.	.	.	.	.	.	.	.	.	.	.	16ggQ
*	*	*	*	*	*	*	*	*	*	*staff:9	*	*	*	*	*	*	*
2.ryy	4r	4r	2.r	2.r	2.ryy	2.ryy	2.ryy	2.ryy	2.ryy	4.ryy	8D	2.ryy	2.ryy	8f#	8a	2.ryy	8aa
.	.	.	.	.	.	.	.	.	.	.	8r	.	.	8ryy	8r	.	8r
.	4r	4r	.	.	.	.	.	.	.	.	8r	.	.	4ryy	4r	.	4r
.	.	.	.	.	.	.	.	.	.	8c	8e	.	.	.	.	.	.
.	4FF#	[4D	.	.	.	.	.	.	.	8B	8d	.	.	4ryy	4r	.	4r
.	.	.	.	.	.	.	.	.	.	8A	8c	.	.	.	.	.	.
=60	=60	=60	=60	=60	=60	=60	=60	=60	=60	=60	=60	=60	=60	=60	=60	=60	=60
*	*	*	*	*	*	*	*	*	*	*	*	*	*	*	*	*staff:11	*
2.ryy	16GG	8D]	4..g	2.r	2.ryy	2.ryy	2.ryy	2.ryy	2.ryy	4G	4B	2.ryy	2.ryy	2.r	2.r	2.r	2.r
.	16G'	.	.	.	.	.	.	.	.	.	.	.	.	.	.	.	.
.	16F#'	8r	.	.	.	.	.	.	.	.	.	.	.	.	.	.	.
.	16E'	.	.	.	.	.	.	.	.	.	.	.	.	.	.	.	.
.	16D'	4r	.	.	.	.	.	.	.	4ryy	4r	.	.	.	.	.	.
.	16C'	.	.	.	.	.	.	.	.	.	.	.	.	.	.	.	.
.	16BB'	.	.	.	.	.	.	.	.	.	.	.	.	.	.	.	.
.	16AA'	.	16d	.	.	.	.	.	.	.	.	.	.	.	.	.	.
.	16GG'	4d	8.b'	.	.	.	.	.	.	4ryy	4r	.	.	.	.	.	.
.	16FF#'	.	.	.	.	.	.	.	.	.	.	.	.	.	.	.	.
.	16EE'	.	.	.	.	.	.	.	.	.	.	.	.	.	.	.	.
.	16DD'	.	16b'	.	.	.	.	.	.	.	.	.	.	.	.	.	.
=61	=61	=61	=61	=61	=61	=61	=61	=61	=61	=61	=61	=61	=61	=61	=61	=61	=61
2.ryy	16CC'	8.e	4b	4..ee	2.ryy	2.ryy	2.ryy	2.ryy	2.ryy	2.r	2.r	2.ryy	2.ryy	2.r	2.r	2.r	2.r
.	16EE	.	.	.	.	.	.	.	.	.	.	.	.	.	.	.	.
.	16FF#	.	.	.	.	.	.	.	.	.	.	.	.	.	.	.	.
.	16GG#	16d	.	.	.	.	.	.	.	.	.	.	.	.	.	.	.
.	16AA	4c	4a	.	.	.	.	.	.	.	.	.	.	.	.	.	.
.	16GG#	.	.	.	.	.	.	.	.	.	.	.	.	.	.	.	.
.	16AA	.	.	.	.	.	.	.	.	.	.	.	.	.	.	.	.
.	16BB	.	.	16a	.	.	.	.	.	.	.	.	.	.	.	.	.
.	16C	4e	4g	8.aa'	.	.	.	.	.	.	.	.	.	.	.	.	.
.	16BB	.	.	.	.	.	.	.	.	.	.	.	.	.	.	.	.
.	16C	.	.	.	.	.	.	.	.	.	.	.	.	.	.	.	.
.	16C#	.	.	16aa'	.	.	.	.	.	.	.	.	.	.	.	.	.
=62	=62	=62	=62	=62	=62	=62	=62	=62	=62	=62	=62	=62	=62	=62	=62	=62	=62
2.ryy	16D	4d	4g	[4aa	2.ryy	2.ryy	2.ryy	2.ryy	2.ryy	2.r	2.r	2.ryy	2.ryy	2.r	2.r	2.r	2.r
.	16C#	.	.	.	.	.	.	.	.	.	.	.	.	.	.	.	.
.	16D	.	.	.	.	.	.	.	.	.	.	.	.	.	.	.	.
.	16DD	.	.	.	.	.	.	.	.	.	.	.	.	.	.	.	.
.	8.D	4r	8.f#	16aa]	.	.	.	.	.	.	.	.	.	.	.	.	.
.	.	.	.	16dd	.	.	.	.	.	.	.	.	.	.	.	.	.
.	.	.	.	16cc#	.	.	.	.	.	.	.	.	.	.	.	.	.
.	16E'	.	16g'	16dd	.	.	.	.	.	.	.	.	.	.	.	.	.
.	8.ET	4r	8.gT	16cc#	.	.	.	.	.	.	.	.	.	.	.	.	.
.	.	.	.	16dd	.	.	.	.	.	.	.	.	.	.	.	.	.
.	.	.	.	16cc#	.	.	.	.	.	.	.	.	.	.	.	.	.
.	32D	.	32f#	16dd	.	.	.	.	.	.	.	.	.	.	.	.	.
.	32E	.	32g	.	.	.	.	.	.	.	.	.	.	.	.	.	.
=63	=63	=63	=63	=63	=63	=63	=63	=63	=63	=63	=63	=63	=63	=63	=63	=63	=63
*	*staff:1	*staff:2	*staff:3	*staff:4	*	*	*	*	*	*	*	*	*	*	*	*	*
2.ryy	2.F#	[2.d	[2.a	16cc#	2.ryy	2.ryy	2.ryy	2.ryy	2.ryy	2.ryy	2.ryy	2.ryy	2.ryy	2.ryy	2.ryy	2.ryy	2.ryy
.	.	.	.	16dd	.	.	.	.	.	.	.	.	.	.	.	.	.
.	.	.	.	16ee	.	.	.	.	.	.	.	.	.	.	.	.	.
.	.	.	.	16dd	.	.	.	.	.	.	.	.	.	.	.	.	.
.	.	.	.	16cc#	.	.	.	.	.	.	.	.	.	.	.	.	.
.	.	.	.	16dd	.	.	.	.	.	.	.	.	.	.	.	.	.
.	.	.	.	16ee	.	.	.	.	.	.	.	.	.	.	.	.	.
.	.	.	.	16dd	.	.	.	.	.	.	.	.	.	.	.	.	.
.	.	.	.	16b	.	.	.	.	.	.	.	.	.	.	.	.	.
.	.	.	.	16ccn	.	.	.	.	.	.	.	.	.	.	.	.	.
.	.	.	.	16dd	.	.	.	.	.	.	.	.	.	.	.	.	.
.	.	.	.	16cc	.	.	.	.	.	.	.	.	.	.	.	.	.
=64	=64	=64	=64	=64	=64	=64	=64	=64	=64	=64	=64	=64	=64	=64	=64	=64	=64
2.ryy	4..G	4d]	16a]	[4b	2.ryy	2.ryy	2.ryy	2.ryy	2.ryy	2.ryy	2.ryy	2.ryy	2.ryy	2.ryy	2.ryy	2.ryy	2.ryy
.	.	.	16d	.	.	.	.	.	.	.	.	.	.	.	.	.	.
.	.	.	16e	.	.	.	.	.	.	.	.	.	.	.	.	.	.
.	.	.	16f#	.	.	.	.	.	.	.	.	.	.	.	.	.	.
.	.	4r	16g	16b]	.	.	.	.	.	.	.	.	.	.	.	.	.
.	.	.	16a	16cc	.	.	.	.	.	.	.	.	.	.	.	.	.
.	.	.	16b	16dd	.	.	.	.	.	.	.	.	.	.	.	.	.
.	16D	.	16a	16cc	.	.	.	.	.	.	.	.	.	.	.	.	.
.	8.B'	4r	16g	16b	.	.	.	.	.	.	.	.	.	.	.	.	.
.	.	.	16f#	16a	.	.	.	.	.	.	.	.	.	.	.	.	.
.	.	.	16e	16g	.	.	.	.	.	.	.	.	.	.	.	.	.
.	16B'	.	16d	16f#	.	.	.	.	.	.	.	.	.	.	.	.	.
=65	=65	=65	=65	=65	=65	=65	=65	=65	=65	=65	=65	=65	=65	=65	=65	=65	=65
2.ryy	4B	2.r	[2.c	16e'	2.ryy	2.ryy	2.ryy	2.ryy	2.ryy	2.ryy	2.ryy	2.ryy	2.ryy	2.ryy	2.ryy	2.ryy	2.ryy
.	.	.	.	16f#	.	.	.	.	.	.	.	.	.	.	.	.	.
.	.	.	.	16g	.	.	.	.	.	.	.	.	.	.	.	.	.
.	.	.	.	16g#	.	.	.	.	.	.	.	.	.	.	.	.	.
.	4A	.	.	16a	.	.	.	.	.	.	.	.	.	.	.	.	.
.	.	.	.	16b	.	.	.	.	.	.	.	.	.	.	.	.	.
.	.	.	.	16cc	.	.	.	.	.	.	.	.	.	.	.	.	.
.	.	.	.	16cc#	.	.	.	.	.	.	.	.	.	.	.	.	.
.	4G	.	.	16dd	.	.	.	.	.	.	.	.	.	.	.	.	.
.	.	.	.	16dd#	.	.	.	.	.	.	.	.	.	.	.	.	.
.	.	.	.	16ee'	.	.	.	.	.	.	.	.	.	.	.	.	.
.	.	.	.	16ee'	.	.	.	.	.	.	.	.	.	.	.	.	.
=66	=66	=66	=66	=66	=66	=66	=66	=66	=66	=66	=66	=66	=66	=66	=66	=66	=66
2.ryy	4F#	2.r	4c]	[4.ee	2.ryy	2.ryy	2.ryy	2.ryy	2.ryy	2.ryy	2.ryy	2.ryy	2.ryy	2.ryy	2.ryy	2.ryy	2.ryy
.	4f#	.	[4cc	.	.	.	.	.	.	.	.	.	.	.	.	.	.
.	.	.	.	8ee-]	.	.	.	.	.	.	.	.	.	.	.	.	.
.	8g	.	16cc]	8dd	.	.	.	.	.	.	.	.	.	.	.	.	.
.	.	.	16b	.	.	.	.	.	.	.	.	.	.	.	.	.	.
.	8B'	.	16a	8dd	.	.	.	.	.	.	.	.	.	.	.	.	.
.	.	.	16g	.	.	.	.	.	.	.	.	.	.	.	.	.	.
=67	=67	=67	=67	=67	=67	=67	=67	=67	=67	=67	=67	=67	=67	=67	=67	=67	=67
2.ryy	8c'	2.r	16f#	16dd	2.ryy	2.ryy	2.ryy	2.ryy	2.ryy	2.ryy	2.ryy	2.ryy	2.ryy	2.ryy	2.ryy	2.ryy	2.ryy
.	.	.	16e	16cc	.	.	.	.	.	.	.	.	.	.	.	.	.
.	8C'	.	16d	16b	.	.	.	.	.	.	.	.	.	.	.	.	.
.	.	.	16c	16a	.	.	.	.	.	.	.	.	.	.	.	.	.
.	2D	.	4B	[4g	.	.	.	.	.	.	.	.	.	.	.	.	.
.	.	.	8d	16g]	.	.	.	.	.	.	.	.	.	.	.	.	.
.	.	.	.	16f#	.	.	.	.	.	.	.	.	.	.	.	.	.
.	.	.	8c	16b	.	.	.	.	.	.	.	.	.	.	.	.	.
.	.	.	.	16a	.	.	.	.	.	.	.	.	.	.	.	.	.
=68	=68	=68	=68	=68	=68	=68	=68	=68	=68	=68	=68	=68	=68	=68	=68	=68	=68
*	*staff:12	*staff:13	*staff:14	*staff:15	*staff:16	*staff:17	*staff:17	*staff:18	*staff:18	*staff:19	*staff:19	*staff:20	*staff:20	*staff:21	*staff:21	*staff:22	*staff:22
2.ryy	4r	2.r	2cc	4.ee	2.r	2.r	2.r	2.r	2.r	2.r	2.r	2.r	2.r	2.r	2.r	2.r	2.r
.	4f#	.	.	.	.	.	.	.	.	.	.	.	.	.	.	.	.
.	.	.	.	8ee-	.	.	.	.	.	.	.	.	.	.	.	.	.
.	4g	.	4b	8dd	.	.	.	.	.	.	.	.	.	.	.	.	.
.	.	.	.	8dd'	.	.	.	.	.	.	.	.	.	.	.	.	.
=69	=69	=69	=69	=69	=69	=69	=69	=69	=69	=69	=69	=69	=69	=69	=69	=69	=69
2.ryy	4a	4..d	4cc	4ff#	2.r	2.r	2.r	2.r	2.r	2.ryy	4..d	2.r	2.r	2.r	2.r	2.r	2.r
.	[2g	.	4b	4gg	.	.	.	.	.	.	.	.	.	.	.	.	.
.	.	16G	.	.	.	.	.	.	.	.	16G	.	.	.	.	.	.
.	.	8.e'	4a#	4cc#	.	.	.	.	.	.	8.e'	.	.	.	.	.	.
.	.	16e'	.	.	.	.	.	.	.	.	16e'	.	.	.	.	.	.
=70	=70	=70	=70	=70	=70	=70	=70	=70	=70	=70	=70	=70	=70	=70	=70	=70	=70
2.ryy	8g']	8d'	8b'	8dd'	2.r	2.r	2.r	2.r	2.r	2.ryy	8d'	2.r	2.r	2.r	2.r	2.r	2.r
.	8r	8r	8r	8r	.	.	.	.	.	.	8r	.	.	.	.	.	.
.	4r	4r	4r	4r	.	.	.	.	.	.	4r	.	.	.	.	.	.
.	8D'	8A'	8c'	8f#'	.	.	.	.	.	.	4r	.	.	.	.	.	.
.	8r	8r	8r	8r	.	.	.	.	.	.	.	.	.	.	.	.	.
=71	=71	=71	=71	=71	=71	=71	=71	=71	=71	=71	=71	=71	=71	=71	=71	=71	=71
*staff:12	*	*	*	*	*	*	*	*	*	*	*	*	*	*	*	*	*
2GG	2G	16B	16g	2b	4GG	2g	2dd	2g	2b	2G	2B	2b	2dd	2.dd	[2.ddd	2.ryy	2bb
.	.	16D	16d	.	.	.	.	.	.	.	.	.	.	.	.	.	.
.	.	16B	16g	.	.	.	.	.	.	.	.	.	.	.	.	.	.
.	.	16D	16d	.	.	.	.	.	.	.	.	.	.	.	.	.	.
.	.	16B	16g	.	4r	.	.	.	.	.	.	.	.	.	.	.	.
.	.	16D	16d	.	.	.	.	.	.	.	.	.	.	.	.	.	.
.	.	16G	16g	.	.	.	.	.	.	.	.	.	.	.	.	.	.
.	.	16D	16d	.	.	.	.	.	.	.	.	.	.	.	.	.	.
.	.	.	.	8bq	.	.	.	.	.	.	.	.	.	.	.	.	8bbq
4DD	4D	16F#	16c	16a	4r	4dd	4dd	4d	4a	4F#	4c	4cc	4ff#	.	.	.	16aa
.	.	16G	16B	16g	.	.	.	.	.	.	.	.	.	.	.	.	16gg
.	.	16F#	16c	16a	.	.	.	.	.	.	.	.	.	.	.	.	16aa
.	.	16A	16A	16f#	.	.	.	.	.	.	.	.	.	.	.	.	16ff#
=72	=72	=72	=72	=72	=72	=72	=72	=72	=72	=72	=72	=72	=72	=72	=72	=72	=72
4GGG	4GG	4G	4B	16g	4GG	4g	4dd	4B	4g	4G	4B	4b	4gg	2.dd	2.ddd_	2.ryy	16gg
.	.	.	.	16d'	.	.	.	.	.	.	.	.	.	.	.	.	16dd'
.	.	.	.	16d'	.	.	.	.	.	.	.	.	.	.	.	.	16dd'
.	.	.	.	16d'	.	.	.	.	.	.	.	.	.	.	.	.	16dd'
4r	4r	4r	4r	16c#	4r	4ryy	4r	4ryy	4r	4ryy	4r	4ryy	4r	.	.	.	16cc#
.	.	.	.	16d	.	.	.	.	.	.	.	.	.	.	.	.	16dd
.	.	.	.	16e	.	.	.	.	.	.	.	.	.	.	.	.	16ee
.	.	.	.	16f#	.	.	.	.	.	.	.	.	.	.	.	.	16ff#
4r	4r	4r	4r	16g	4r	4ryy	4r	4ryy	4r	4ryy	4r	4ryy	4r	.	.	.	16gg
.	.	.	.	16a	.	.	.	.	.	.	.	.	.	.	.	.	16aa
.	.	.	.	16b-	.	.	.	.	.	.	.	.	.	.	.	.	16bb-
.	.	.	.	16bn	.	.	.	.	.	.	.	.	.	.	.	.	16bbn
=73	=73	=73	=73	=73	=73	=73	=73	=73	=73	=73	=73	=73	=73	=73	=73	=73	=73
*staff:1	*staff:1	*staff:2	*staff:3	*staff:4	*staff:5	*staff:6	*staff:6	*staff:7	*staff:7	*staff:8	*staff:8	*staff:9	*staff:9	*staff:10	*staff:10	*	*staff:11
2FF#	2F#	16D	16a	2cc	2.r	[2.dd	[2.dd	2d	2a	2A	2c	2cc	2aa	2.dd	2.ddd_	2.ryy	2ccc
.	.	16A	16d	.	.	.	.	.	.	.	.	.	.	.	.	.	.
.	.	16D	16a	.	.	.	.	.	.	.	.	.	.	.	.	.	.
.	.	16A	16d	.	.	.	.	.	.	.	.	.	.	.	.	.	.
.	.	16D	16a	.	.	.	.	.	.	.	.	.	.	.	.	.	.
.	.	16A	16d	.	.	.	.	.	.	.	.	.	.	.	.	.	.
.	.	16D	16a	.	.	.	.	.	.	.	.	.	.	.	.	.	.
.	.	16A	16d	.	.	.	.	.	.	.	.	.	.	.	.	.	.
.	.	.	.	8ccq	.	.	.	.	.	.	.	.	.	.	.	.	8cccq
4GG	4G	16D	16g	16b	.	.	.	4g	4b	4G	4B	4b	4gg	.	.	.	16bb
.	.	16d	16f#	16a	.	.	.	.	.	.	.	.	.	.	.	.	16aa
.	.	16D	16g	16b	.	.	.	.	.	.	.	.	.	.	.	.	16bb
.	.	16d	16B	16g	.	.	.	.	.	.	.	.	.	.	.	.	16gg
=74	=74	=74	=74	=74	=74	=74	=74	=74	=74	=74	=74	=74	=74	=74	=74	=74	=74
4DD	4D	4D	4d	16a	2.r	4dd]	4dd]	4d	4a	4F#	4A	4a	4ff#	2.dd	2.ddd]	2.ryy	16aa
.	.	.	.	16d'	.	.	.	.	.	.	.	.	.	.	.	.	16dd'
.	.	.	.	16d'	.	.	.	.	.	.	.	.	.	.	.	.	16dd'
.	.	.	.	16d'	.	.	.	.	.	.	.	.	.	.	.	.	16dd'
4r	4r	4r	4r	16c#	.	4r	4r	4ryy	4r	4ryy	4r	4ryy	4r	.	.	.	16cc#
.	.	.	.	16d	.	.	.	.	.	.	.	.	.	.	.	.	16dd
.	.	.	.	16e	.	.	.	.	.	.	.	.	.	.	.	.	16ee
.	.	.	.	16f#	.	.	.	.	.	.	.	.	.	.	.	.	16ff#
4r	4r	4r	4r	16g	.	4r	4r	4ryy	4r	4ryy	4r	4ryy	4r	.	.	.	16gg
.	.	.	.	16a	.	.	.	.	.	.	.	.	.	.	.	.	16aa
.	.	.	.	16b	.	.	.	.	.	.	.	.	.	.	.	.	16bb
.	.	.	.	16ccn	.	.	.	.	.	.	.	.	.	.	.	.	16cccn
=75	=75	=75	=75	=75	=75	=75	=75	=75	=75	=75	=75	=75	=75	=75	=75	=75	=75
2BBB	2BB	16G	16g	2dd	4GG	2g	2dd	2.g	2.g	2.G	2d	2dd	2gg	2dd	4ddd	2.ryy	2ddd
.	.	16g	16d	.	.	.	.	.	.	.	.	.	.	.	.	.	.
.	.	16G	16g	.	.	.	.	.	.	.	.	.	.	.	.	.	.
.	.	16g	16d	.	.	.	.	.	.	.	.	.	.	.	.	.	.
.	.	16G	16g	.	4r	.	.	.	.	.	.	.	.	.	8bb	.	.
.	.	16g	16d	.	.	.	.	.	.	.	.	.	.	.	.	.	.
.	.	16G	16g	.	.	.	.	.	.	.	.	.	.	.	8gg	.	.
.	.	16g	16d	.	.	.	.	.	.	.	.	.	.	.	.	.	.
.	.	.	.	8ddq	.	.	.	.	.	.	.	.	.	.	.	.	8dddq
4CC	4C	16G	16e	16cc	4C	4cc	4ee	.	.	.	4e	4cc	4aa	16cc	16ee	.	16ccc
.	.	16g	16d	16b	.	.	.	.	.	.	.	.	.	16b	16dd	.	16bb
.	.	16G	16e	16cc	.	.	.	.	.	.	.	.	.	16cc	16ee	.	16ccc
.	.	16g	16c	16a	.	.	.	.	.	.	.	.	.	16a	16cc	.	16aa
=76	=76	=76	=76	=76	=76	=76	=76	=76	=76	=76	=76	=76	=76	=76	=76	=76	=76
2.DD	2.D	16d	16B	2g	4GG	2.dd	2.dd	2g	2b	2G	2B	2b	2gg	2g	2b	2.ryy	2gg
.	.	16B	16d	.	.	.	.	.	.	.	.	.	.	.	.	.	.
.	.	16d	16B	.	.	.	.	.	.	.	.	.	.	.	.	.	.
.	.	16B	16d	.	.	.	.	.	.	.	.	.	.	.	.	.	.
.	.	16d	16B	.	4r	.	.	.	.	.	.	.	.	.	.	.	.
.	.	16B	16d	.	.	.	.	.	.	.	.	.	.	.	.	.	.
.	.	16d	16B	.	.	.	.	.	.	.	.	.	.	.	.	.	.
.	.	16B	16d	.	.	.	.	.	.	.	.	.	.	.	.	.	.
.	.	.	.	8bq	.	.	.	.	.	.	.	.	.	.	.	.	8bbq
.	.	16F#	16c	16a	4r	.	.	4d	4a	4F#	4A	4a	4ff#	16a	16cc	.	16aa
.	.	16G	16B	16g	.	.	.	.	.	.	.	.	.	16g	16b	.	16gg
.	.	16F#	16c	16a	.	.	.	.	.	.	.	.	.	16a	16cc	.	16aa
.	.	16A	16A	16f#	.	.	.	.	.	.	.	.	.	16f#	16a	.	16ff#
=77	=77	=77	=77	=77	=77	=77	=77	=77	=77	=77	=77	=77	=77	=77	=77	=77	=77
8GG'	8G'	8G'	8B'	16g	4GG	4g	4dd	4B	4g	8G'	8G'	4b	4gg	4g	4g	2.ryy	16gg
.	.	.	.	16d	.	.	.	.	.	.	.	.	.	.	.	.	16dd
16r	16r	16r	16r	16a'	.	.	.	.	.	16r	16r	.	.	.	.	.	16aa'
16DD'	16D'	16A'	16c'	16f#'	.	.	.	.	.	16D'	16D'	.	.	.	.	.	16ff#'
8GG'	8G'	8G'	8B'	16g	4r	4ryy	4r	4ryy	4r	8G'	8G'	4ryy	4r	4ryy	4r	.	16gg
.	.	.	.	16d	.	.	.	.	.	.	.	.	.	.	.	.	16dd
16r	16r	16r	16r	16a'	.	.	.	.	.	16r	16r	.	.	.	.	.	16aa'
16DD'	16D'	16A'	16c'	16f#'	.	.	.	.	.	16D'	16D'	.	.	.	.	.	16ff#'
8GG'	8G'	8G'	8B'	16g	4r	4ryy	4r	4ryy	4r	8G'	8G'	4ryy	4r	4ryy	4r	.	16gg
.	.	.	.	16d	.	.	.	.	.	.	.	.	.	.	.	.	16dd
16r	16r	16r	16r	16b'	.	.	.	.	.	16r	16r	.	.	.	.	.	16bb'
16BB'	16B'	16d'	16d'	16g#'	.	.	.	.	.	16d'	16d'	.	.	.	.	.	16gg#'
=78	=78	=78	=78	=78	=78	=78	=78	=78	=78	=78	=78	=78	=78	=78	=78	=78	=78
*staff:11	*staff:11	*staff:12	*staff:13	*staff:14	*	*staff:15	*staff:15	*staff:16	*staff:16	*staff:17	*staff:17	*staff:18	*staff:18	*staff:19	*staff:19	*	*staff:20
8C'	8c'	8F#'	8d'	16a	2.ryy	2.r	2.r	8d'	8d'	8F#'	8F#'	8f#'	8a'y	2.r	2.r	2.ryy	16aa
.	.	.	.	16d	.	.	.	.	.	.	.	.	.	.	.	.	16dd
16r	16r	16r	16r	16b'	.	.	.	8r	8r	16r	16r	8ryy	8r	.	.	.	16bb'
16BB'	16B'	16d'	16d'	16g#'	.	.	.	.	.	16d'	16d'	.	.	.	.	.	16gg#'
8C'	8c'	8F#'	8d'	16a	.	.	.	8d'	8d'	8F#'	8F#'	8f#'	8a'y	.	.	.	16aa
.	.	.	.	16d	.	.	.	.	.	.	.	.	.	.	.	.	16dd
16r	16r	16r	16r	16b'	.	.	.	8r	8r	16r	16r	8ryy	8r	.	.	.	16bb'
16BB'	16B'	16d'	16d'	16g#'	.	.	.	.	.	16d'	16d'	.	.	.	.	.	16gg#'
8C'	8c'	8F#'	8d'	16a	.	.	.	8d'	8d'	8F#'	8F#'	8f#'	8a'y	.	.	.	16aa
.	.	.	.	16d	.	.	.	.	.	.	.	.	.	.	.	.	16dd
16r	16r	16r	16r	16cc'	.	.	.	8r	8r	16r	16r	8ryy	8r	.	.	.	16ccc'
16FF#'	16F#'	16d'	16d'	16a#'	.	.	.	.	.	16d'	16d'	.	.	.	.	.	16aa#'
=79	=79	=79	=79	=79	=79	=79	=79	=79	=79	=79	=79	=79	=79	=79	=79	=79	=79
8GG'	8G'	8G'	8d'	16b	2.ryy	8g'y	8dd'	8g'	8g'	8G'	8G'	8g'	8b'y	8g'	8b'y	2.ryy	16bb
.	.	.	.	16g	.	.	.	.	.	.	.	.	.	.	.	.	16gg
16r	16r	16r	16r	16dd'	.	8ryy	8r	16r	16r	16r	16r	16g'	16r	16g'	16r	.	16ddd'
16FF'	16Fn'	16d'	16g'	16b'	.	.	.	16g'	16g'	16d'	16d'	8g'	16b'y	8g'	16b'y	.	16bb'
8EE'	8E'	8e'	8G'	16cc	.	8cc'y	8ee'	8g'	8g'	8e'	8e'	.	8cc'y	.	8cc'y	.	16ccc
.	.	.	.	16g	.	.	.	.	.	.	.	16g'	.	16g'	.	.	16gg
16r	16r	16r	16r	16ee'	.	8ryy	8r	16r	16r	16r	16r	8g'	16r	8g'	16r	.	16eee'
16C'	16c'	16e'	16g'	16cc'	.	.	.	16g'	16g'	16e'	16e'	.	16cc'y	.	16cc'y	.	16ccc'
8BB'	8B'	8fn'	8G'	16dd	.	8g'y	8dd'	8g'	8g'	8fn'	8fn'	16g'	8dd'y	16g'	8dd'y	.	16ddd
.	.	.	.	16b	.	.	.	.	.	.	.	96ryy	.	96ryy	.	.	16gg
.	.	.	.	.	.	.	.	.	.	.	.	96ryy	.	96ryy	.	.	.
.	.	.	.	.	.	.	.	.	.	.	.	96ryy	.	96ryy	.	.	.
.	.	.	.	.	.	.	.	.	.	.	.	96ryy	.	96ryy	.	.	.
.	.	.	.	.	.	.	.	.	.	.	.	96ryy	.	96ryy	.	.	.
.	.	.	.	.	.	.	.	.	.	.	.	96ryy	.	96ryy	.	.	.
16r	16r	16r	16r	16ffn'	.	8ryy	8r	16r	16r	16r	16r	96ryy	16r	96ryy	16r	.	16fffn'
.	.	.	.	.	.	.	.	.	.	.	.	96ryy	.	96ryy	.	.	.
.	.	.	.	.	.	.	.	.	.	.	.	96ryy	.	96ryy	.	.	.
.	.	.	.	.	.	.	.	.	.	.	.	96ryy	.	96ryy	.	.	.
.	.	.	.	.	.	.	.	.	.	.	.	96ryy	.	96ryy	.	.	.
.	.	.	.	.	.	.	.	.	.	.	.	96ryy	.	96ryy	.	.	.
16GG'	16G'	16B'	16g'	16dd'	.	.	.	16g'	16g'	16B'	16B'	96ryy	16dd'y	96ryy	16dd'y	.	16ddd'
.	.	.	.	.	.	.	.	.	.	.	.	96ryy	.	96ryy	.	.	.
.	.	.	.	.	.	.	.	.	.	.	.	96ryy	.	96ryy	.	.	.
.	.	.	.	.	.	.	.	.	.	.	.	96ryy	.	96ryy	.	.	.
.	.	.	.	.	.	.	.	.	.	.	.	96ryy	.	96ryy	.	.	.
.	.	.	.	.	.	.	.	.	.	.	.	96ryy	.	96ryy	.	.	.
!!WARNING: This measure contained too few data records
=80	=80	=80	=80	=80	=80	=80	=80	=80	=80	=80	=80	=80	=80	=80	=80	=80	=80
*	*	*	*	*	*	*	*	*	*	*	*	*	*	*	*	*staff:20	*
8C'	8c'	8c'	8G'	16ee	2.ryy	8cc'y	8ee'	8g'	8g'	8c'	8c'	8g'y	8ee'	8g'y	8ee'	4r	16eee
.	.	.	.	16cc	.	.	.	.	.	.	.	.	.	.	.	.	16ccc
16r	16r	16r	16r	16aa'	.	8ryy	8r	16r	16r	16r	16r	16cc'y	16r	16a'y	16r	.	16aa'
16C'	16c'	16a'	16d'	16ff#X'	.	.	.	16d'	16d'	16c'	16c'	8b'y	16ff#'	8dd'y	16ff#'	.	16ff#'
8BB'	8B'	8g'	8dd'	16gg	.	8dd'	8dd'	8g'	8g'	8B'	8B'	.	8gg'	.	8gg'	8r	16gg
.	.	.	.	16dd	.	.	.	.	.	.	.	16a'y	.	16dd'y	.	.	16dd
16r	16r	16r	16r	16aa'	.	8r	8r	16r	16r	16r	16r	16dd'y	16r	16dd'y	16r	16r	16aa'
16C'	16c'	16a'	16d'	16ff#'	.	.	.	16d'	16d'	16c'	16c'	16cc'y	16ff#'	16a'y	16ff#'	16ff#	16ff#'
16BB'	16B'	16g'	16dd'	16gg'	.	16dd'	16dd'	16g'	16g'	16B'	16B'	16b'y	16gg'	16b'y	16gg'	16gg'	16gg'
16FF#'	16F#'	16d'	16cc'	16aa'	.	16dd'	16dd'	16d'	16d'	16F#'	16F#'	16a'y	16aa'	16cc'y	16ccc'	16aa'	16aa'
16GG'	16G'	16d'	16b'	16bb'	.	16dd'	16dd'	16g'	16g'	16G'	16G'	96ryy	16bb'	96ryy	16bb'	16bb'	16bb'
.	.	.	.	.	.	.	.	.	.	.	.	96ryy	.	96ryy	.	.	.
.	.	.	.	.	.	.	.	.	.	.	.	96ryy	.	96ryy	.	.	.
.	.	.	.	.	.	.	.	.	.	.	.	96ryy	.	96ryy	.	.	.
.	.	.	.	.	.	.	.	.	.	.	.	96ryy	.	96ryy	.	.	.
.	.	.	.	.	.	.	.	.	.	.	.	96ryy	.	96ryy	.	.	.
16AA'	16A'	16d'	16a'	16ccc'	.	16dd'	16dd'	16d'	16d'	16A'	16A'	96ryy	16ccc'	96ryy	16aa'	16ccc'	16ccc'
.	.	.	.	.	.	.	.	.	.	.	.	96ryy	.	96ryy	.	.	.
.	.	.	.	.	.	.	.	.	.	.	.	96ryy	.	96ryy	.	.	.
.	.	.	.	.	.	.	.	.	.	.	.	96ryy	.	96ryy	.	.	.
.	.	.	.	.	.	.	.	.	.	.	.	96ryy	.	96ryy	.	.	.
.	.	.	.	.	.	.	.	.	.	.	.	96ryy	.	96ryy	.	.	.
!!WARNING: This measure contained too few data records
=81	=81	=81	=81	=81	=81	=81	=81	=81	=81	=81	=81	=81	=81	=81	=81	=81	=81
8BB	8B	8d	8g	8ddd	2.ryy	8dd	8dd	8g	8g	8B	8B	8g	8ddd	8dd	8gg	8ddd	8ddd
16r	16r	16r	16r	16r	.	8r	8r	8r	8r	16r	16r	8ryy	8r	16ryy	16r	16r	16r
16GG#'	16G#'	16g#'	16b'	16eee'	.	.	.	.	.	16e'	16e'	.	.	16b'	16b'	16eee	16eee
16AA'	16A'	16a'	16cc'	16ccc'	.	4r	4r	4r	4r	16c'	16c'	4ryy	4r	16cc'	16cc'	16ccc'	16ccc'
16FF#'	16F#'	16f#'	16a'	16ddd'	.	.	.	.	.	16d'	16d'	.	.	16aa'	16aa'	16ddd'	16ddd'
16GG'	16Gn'	16gn'	16b'	16bb'	.	.	.	.	.	16B'	16B'	.	.	16b'	16b'	16bb'	16bb'
16EE'	16E'	16e'	16g'	16ccc'	.	.	.	.	.	16c'	16c'	.	.	16gg'	16gg'	16ccc'	16ccc'
16FF#'	16F#'	16f#'	16a'	16aa'	.	4r	4r	4r	4r	16A'	16A'	4ryy	4r	16a'	16a'	16aa'	16aa'
16DD#'	16D#'	16d#'	16f#'	16bb'	.	.	.	.	.	16B'	16B'	.	.	16ff#'	16ff#'	16bb'	16bb'
16EE'	16E'	16e'	16g'	16gg'	.	.	.	.	.	16G'	16G'	.	.	16g'	16g'	16gg'	16gg'
16CC#'	16C#'	16c#'	16e'	16aa'	.	.	.	.	.	16A'	16A'	.	.	16ee'	16ee'	16aa'	16aa'
=82	=82	=82	=82	=82	=82	=82	=82	=82	=82	=82	=82	=82	=82	=82	=82	=82	=82
8DD'	8Dn'	8dn'	16d'	16ff#'	2.ryy	16cc'	16cc'	16d'	16d'	8F#'	8F#'	2.d	[2.cc	8f#'	8f#'	8ff#'	8ff#'
.	.	.	16c' 16d'y	16c' 16d'y	.	32cc'	32cc'	32d'	32d'	.	.	.	.	.	.	.	.
.	.	.	.	.	.	32cc'	32cc'	32d'	32d'	.	.	.	.	.	.	.	.
16r	16r	16r	16c' 16d'y	16c' 16d'y	.	16cc'	16cc'	16d'	16d'	16r	16r	.	.	16r	16r	16r	16r
16EE-'	16E-'	16g'	16c' 16d'y	16c' 16d'y	.	16cc'	16cc'	16d'	16d'	16G'	16G'	.	.	16g'	16g'	16gg'	16gg'
8DD'	8D'	8f#'	16c 16d	16c 16d	.	16cc	16cc	16d	16d	8F#'	8F#'	.	.	8f#'	8f#'	8ff#'	8ff#'
.	.	.	16c 16d	16c 16d	.	16cc	16cc	16d	16d	.	.	.	.	.	.	.	.
16r	16r	16r	16c 16d	16c 16d	.	16cc	16cc	16d	16d	16r	16r	.	.	16r	16r	16r	16r
16GG'	16G'	16b-'	16c 16d	16c 16d	.	16cc	16cc	16d	16d	16B-'	16B-'	.	.	16b-'	16b-'	16bb-'	16bb-'
8FF#'	8F#'	8a'	16c 16d	16c 16d	.	16cc	16cc	16d	16d	8A'	8A'	.	.	8a'	8a'	8aa'	8aa'
.	.	.	16c 16d	16c 16d	.	16cc	16cc	16d	16d	.	.	.	.	.	.	.	.
16r	16r	16r	16c 16d	16c 16d	.	16cc	16cc	16d	16d	16r	16r	.	.	16r	16r	16r	16r
16BB-'	16B-'	16g'	16c 16d	16c 16d	.	16cc	16cc	16d	16d	16G'	16G'	.	.	16g'	16g'	16gg'	16gg'
=83	=83	=83	=83	=83	=83	=83	=83	=83	=83	=83	=83	=83	=83	=83	=83	=83	=83
*staff:1	*staff:1	*staff:2	*staff:3	*staff:4	*	*staff:5	*staff:5	*staff:6	*staff:6	*staff:7	*staff:7	*staff:8	*staff:8	*staff:9	*staff:9	*staff:10	*staff:10
8AA'	8A'	8f#'	16c 16d	16c 16d	2.ryy	16cc'	16cc'	16d'	16d'	8F#'	8F#'	2.d	2.cc_	8f#'	8f#'	8ff#'	8ff#'
.	.	.	16c 16d	16c 16d	.	32cc'	32cc'	32d'	32d'	.	.	.	.	.	.	.	.
.	.	.	.	.	.	32cc'	32cc'	32d'	32d'	.	.	.	.	.	.	.	.
16r	16r	16r	16c 16d	16c 16d	.	16cc'	16cc'	16d'	16d'	16r	16r	.	.	16r	16r	16r	16r
16GG'	16G'	16b-'	16c 16d	16c 16d	.	16cc'	16cc'	16d'	16d'	16B-'	16B-'	.	.	16b-'	16b-'	16bb-'	16bb-'
8FF#'	8F#'	8a'	16c 16d	16c 16d	.	16cc	16cc	16d	16d	8A'	8A'	.	.	8a'	8a'	8aa'	8aa'
.	.	.	16c 16d	16c 16d	.	16cc	16cc	16d	16d	.	.	.	.	.	.	.	.
16r	16r	16r	16c 16d	16c 16d	.	16cc	16cc	16d	16d	16r	16r	.	.	16r	16r	16r	16r
16EE-'	16E-'	16g'	16c 16d	16c 16d	.	16cc	16cc	16d	16d	16G'	16G'	.	.	16g'	16g'	16gg'	16gg'
8DD'	8D'	8f#'	16c 16d	16c 16d	.	16cc	16cc	16d	16d	8F#'	8F#'	.	.	8f#'	8f#'	8ff#'	8ff#'
.	.	.	16c 16d	16c 16d	.	16cc	16cc	16d	16d	.	.	.	.	.	.	.	.
16r	16r	16r	16c 16d	16c 16d	.	16cc	16cc	16d	16d	16r	16r	.	.	16r	16r	16r	16r
16BB-'	16B-'	16g'	16c 16d	16c 16d	.	16cc	16cc	16d	16d	16B-'	16B-'	.	.	16g'	16g'	16gg'	16gg'
=84	=84	=84	=84	=84	=84	=84	=84	=84	=84	=84	=84	=84	=84	=84	=84	=84	=84
8AA'	8A'	8f#'	16c 16d	16c 16d	2.ryy	16cc'	16cc'	16d'	16d'	8A'	8A'	2.d	2.cc_	8f#'	8f#'	8ff#'	8ff#'
.	.	.	16c 16d	16c 16d	.	32cc'	32cc'	32d'	32d'	.	.	.	.	.	.	.	.
.	.	.	.	.	.	32cc'	32cc'	32d'	32d'	.	.	.	.	.	.	.	.
16r	16r	16r	16c 16d	16c 16d	.	16cc'	16cc'	16d'	16d'	16r	16r	.	.	16r	16r	16r	16r
16GG'	16G'	16b-'	16c 16d	16c 16d	.	16cc'	16cc'	16d'	16d'	16G'	16G'	.	.	16b-'	16b-'	16bb-'	16bb-'
16FF#'	16F#'	16a'	16c 16d	16c 16d	.	16cc	16cc	16d	16d	16F#'	16F#'	.	.	16a'	16a'	16aa'	16aa'
16BB-'	16B-'	16g'	16c 16d	16c 16d	.	16cc	16cc	16d	16d	16B-'	16B-'	.	.	16g'	16g'	16gg'	16gg'
16AA'	16A'	16f#'	16c 16d	16c 16d	.	16cc	16cc	16d	16d	16A'	16A'	.	.	16f#'	16f#'	16ff#'	16ff#'
16GG'	16G'	16b-'	16c 16d	16c 16d	.	16cc	16cc	16d	16d	16G'	16G'	.	.	16b-'	16b-'	16bb-'	16bb-'
16FF#'	16F#'	16a'	16c 16d	16c 16d	.	16cc	16cc	16d	16d	16F#'	16F#'	.	.	16a'	16a'	16aa'	16aa'
16BB-'	16B-'	16g'	16c 16d	16c 16d	.	16cc	16cc	16d	16d	16B-'	16B-'	.	.	16g'	16g'	16gg'	16gg'
16AA'	16A'	16f#'	16c 16d	16c 16d	.	16cc	16cc	16d	16d	16A'	16A'	.	.	16f#'	16f#'	16ff#'	16ff#'
16GG'	16G'	16b-'	16c 16d	16c 16d	.	16cc	16cc	16d	16d	16G'	16G'	.	.	16b-'	16b-'	16bb-'	16bb-'
=85	=85	=85	=85	=85	=85	=85	=85	=85	=85	=85	=85	=85	=85	=85	=85	=85	=85
[2.FF#	[2.F#	[2.a	2.c [2.d	16c 16d	2.ryy	4cc	4cc	4d	4d	4F#	4F#	4d	4cc]	4a	4a	4aa	4aa
.	.	.	.	16e-	.	.	.	.	.	.	.	.	.	.	.	.	.
.	.	.	.	16d	.	.	.	.	.	.	.	.	.	.	.	.	.
.	.	.	.	16g	.	.	.	.	.	.	.	.	.	.	.	.	.
.	.	.	.	16f#X	.	4r	4r	4r	4r	4r	4r	4ryy	4r	4r	4r	4r	4r
.	.	.	.	16b-	.	.	.	.	.	.	.	.	.	.	.	.	.
.	.	.	.	16a	.	.	.	.	.	.	.	.	.	.	.	.	.
.	.	.	.	16ee-X	.	.	.	.	.	.	.	.	.	.	.	.	.
.	.	.	.	16dd	.	4r	4r	4r	4r	4r	4r	4ryy	4r	4r	4r	4r	4r
.	.	.	.	16gg	.	.	.	.	.	.	.	.	.	.	.	.	.
.	.	.	.	16ff#X	.	.	.	.	.	.	.	.	.	.	.	.	.
.	.	.	.	16bb-X'	.	.	.	.	.	.	.	.	.	.	.	.	.
=86	=86	=86	=86	=86	=86	=86	=86	=86	=86	=86	=86	=86	=86	=86	=86	=86	=86
8FF#]	8F#]	8a]	8c 8d]	16aa	2.ryy	2.r	2.r	8d	8a	8F#	8c	2.r	2.r	2.r	2.r	2.r	2.r
.	.	.	.	16gg	.	.	.	.	.	.	.	.	.	.	.	.	.
8r	8r	8r	8r	16ff#	.	.	.	8ryy	8r	8ryy	8r	.	.	.	.	.	.
.	.	.	.	16bb-	.	.	.	.	.	.	.	.	.	.	.	.	.
4r	4r	4r	4r	16aa	.	.	.	8d	8a	8F#	8c	.	.	.	.	.	.
.	.	.	.	16gg	.	.	.	.	.	.	.	.	.	.	.	.	.
.	.	.	.	16ff#	.	.	.	8ryy	8r	8ryy	8r	.	.	.	.	.	.
.	.	.	.	16ccc	.	.	.	.	.	.	.	.	.	.	.	.	.
4r	4r	4r	4r	16aa	.	.	.	8d	8a	8F#	8c	.	.	.	.	.	.
.	.	.	.	16gg	.	.	.	.	.	.	.	.	.	.	.	.	.
.	.	.	.	16ff#	.	.	.	8ryy	8r	8ryy	8r	.	.	.	.	.	.
.	.	.	.	16ddd	.	.	.	.	.	.	.	.	.	.	.	.	.
=87	=87	=87	=87	=87	=87	=87	=87	=87	=87	=87	=87	=87	=87	=87	=87	=87	=87
*staff:13	*staff:14	*staff:15	*staff:16	*staff:17	*	*	*	*staff:18	*staff:18	*staff:19	*staff:19	*staff:20	*staff:20	*staff:21	*staff:21	*staff:22	*staff:22
2.r	2.r	2.r	2.r	16ccc	2.ryy	2.ryy	2.ryy	2.d	[2.a	2.F#	[2.c	2.r	2.r	2.r	2.r	2.r	2.r
.	.	.	.	16bb-	.	.	.	.	.	.	.	.	.	.	.	.	.
.	.	.	.	16aa	.	.	.	.	.	.	.	.	.	.	.	.	.
.	.	.	.	16eee-	.	.	.	.	.	.	.	.	.	.	.	.	.
.	.	.	.	16ccc	.	.	.	.	.	.	.	.	.	.	.	.	.
.	.	.	.	16bb-	.	.	.	.	.	.	.	.	.	.	.	.	.
.	.	.	.	16aa	.	.	.	.	.	.	.	.	.	.	.	.	.
.	.	.	.	16ccc	.	.	.	.	.	.	.	.	.	.	.	.	.
.	.	.	.	16aa	.	.	.	.	.	.	.	.	.	.	.	.	.
.	.	.	.	16gg	.	.	.	.	.	.	.	.	.	.	.	.	.
.	.	.	.	16ff#X	.	.	.	.	.	.	.	.	.	.	.	.	.
.	.	.	.	16aa	.	.	.	.	.	.	.	.	.	.	.	.	.
=88	=88	=88	=88	=88	=88	=88	=88	=88	=88	=88	=88	=88	=88	=88	=88	=88	=88
2.r	2.r	2.r	2.r	16cc	2.ryy	2.ryy	2.ryy	8d	8a]	8F#	8c]	2.r	2.r	2.r	2.r	2.r	2.r
.	.	.	.	16dd	.	.	.	.	.	.	.	.	.	.	.	.	.
.	.	.	.	16ee-	.	.	.	8ryy	8r	8ryy	8r	.	.	.	.	.	.
.	.	.	.	16dd	.	.	.	.	.	.	.	.	.	.	.	.	.
.	.	.	.	8ffn'	.	.	.	4ryy	4r	4ryy	4r	.	.	.	.	.	.
.	.	.	.	8ee-X'	.	.	.	.	.	.	.	.	.	.	.	.	.
.	.	.	.	8dd'	.	.	.	4ryy	4r	4ryy	4r	.	.	.	.	.	.
.	.	.	.	8cc'	.	.	.	.	.	.	.	.	.	.	.	.	.
=89	=89	=89	=89	=89	=89	=89	=89	=89	=89	=89	=89	=89	=89	=89	=89	=89	=89
4GG	4GG 4D 4B	4G 4d 4b	4G 4d 4b	2bn	2.ryy	2.ryy	2.ryy	16g	16b	16G	16d	16g	16b	2.ryy	2bb	2.ryy	[2.ddd
.	.	.	.	.	.	.	.	16g	16b	16G	16d	16g	16b	.	.	.	.
.	.	.	.	.	.	.	.	16g	16b	16G	16d	16g	16b	.	.	.	.
.	.	.	.	.	.	.	.	16g	16b	16G	16d	16g	16b	.	.	.	.
4r	4r	4r	4r	.	.	.	.	16g	16b	16G	16d	16g	16b	.	.	.	.
.	.	.	.	.	.	.	.	16g	16b	16G	16d	16g	16b	.	.	.	.
.	.	.	.	.	.	.	.	16g	16b	16G	16d	16g	16b	.	.	.	.
.	.	.	.	.	.	.	.	16g	16b	16G	16d	16g	16b	.	.	.	.
.	.	.	.	8bq	.	.	.	.	.	.	.	.	.	.	8bbq	.	.
4DD	4D 4A	4d 4f# 4a	4d 4f# 4a	16a	.	.	.	16d	16a	16F#	16d	16a	16cc	.	16aa	.	.
.	.	.	.	16g	.	.	.	16d	16a	16F#	16d	16a	16cc	.	16gg	.	.
.	.	.	.	16a	.	.	.	16d	16a	16F#	16d	16a	16cc	.	16aa	.	.
.	.	.	.	16f#	.	.	.	16d	16a	16F#	16d	16a	16cc	.	16ff#	.	.
=90	=90	=90	=90	=90	=90	=90	=90	=90	=90	=90	=90	=90	=90	=90	=90	=90	=90
4GGG	4GG 4D 4B	4G 4d 4b	4G 4d 4b	16g	2.ryy	2.ryy	2.ryy	16B	16g	16G	16d	16g	16b	2.ryy	16gg	2.ryy	2.ddd_
.	.	.	.	16d'	.	.	.	16B	16d	16G	16d	16g	16b	.	16dd'	.	.
.	.	.	.	16d'	.	.	.	16B	16d	16G	16d	16g	16b	.	16dd'	.	.
.	.	.	.	16d'	.	.	.	16B	16d	16G	16d	16g	16b	.	16dd'	.	.
4r	4r	4r	4r	16c#	.	.	.	16B	16d	16G	16d	16g	16b	.	16cc#	.	.
.	.	.	.	16d	.	.	.	16B	16d	16G	16d	16g	16b	.	16dd	.	.
.	.	.	.	16e	.	.	.	16B	16d	16G	16d	16g	16b	.	16ee	.	.
.	.	.	.	16f#	.	.	.	16B	16d	16G	16d	16g	16b	.	16ff#	.	.
4GG	4GG 4D 4B	4G 4d 4b	4G 4d 4b	16g	.	.	.	16B	16d	16G	16d	16g	16b	.	16gg	.	.
.	.	.	.	16a	.	.	.	16B	16d	16G	16d	16g	16b	.	16aa	.	.
.	.	.	.	16b-	.	.	.	16B	16d	16G	16d	16g	16b	.	16bb-	.	.
.	.	.	.	16bn	.	.	.	16B	16d	16G	16d	16g	16b	.	16bbn	.	.
=91	=91	=91	=91	=91	=91	=91	=91	=91	=91	=91	=91	=91	=91	=91	=91	=91	=91
4DD	4D 4A	4d 4f# 4a	4A 4f# 4cc	2cc	2.ryy	2.ryy	2.ryy	16d	16a	16F#	16d	16f#	16a	2.ryy	2ccc	2.ryy	2.ddd_
.	.	.	.	.	.	.	.	16d	16a	16F#	16d	16f#	16a	.	.	.	.
.	.	.	.	.	.	.	.	16d	16a	16F#	16d	16f#	16a	.	.	.	.
.	.	.	.	.	.	.	.	16d	16a	16F#	16d	16f#	16a	.	.	.	.
4r	4r	4r	4r	.	.	.	.	16d	16a	16F#	16d	16f#	16a	.	.	.	.
.	.	.	.	.	.	.	.	16d	16a	16F#	16d	16f#	16a	.	.	.	.
.	.	.	.	.	.	.	.	16d	16a	16F#	16d	16f#	16a	.	.	.	.
.	.	.	.	.	.	.	.	16d	16a	16F#	16d	16f#	16a	.	.	.	.
.	.	.	.	8ccq	.	.	.	.	.	.	.	.	.	.	8cccq	.	.
4GG	4GG 4D 4B	4G 4d 4b	4G 4g 4b	16b	.	.	.	16g	16b	16G	16d	16g	16b	.	16bb	.	.
.	.	.	.	16a	.	.	.	16g	16b	16G	16d	16g	16b	.	16aa	.	.
.	.	.	.	16b	.	.	.	16g	16b	16G	16d	16g	16b	.	16bb	.	.
.	.	.	.	16g	.	.	.	16g	16b	16G	16d	16g	16b	.	16gg	.	.
=92	=92	=92	=92	=92	=92	=92	=92	=92	=92	=92	=92	=92	=92	=92	=92	=92	=92
*staff:1	*staff:2	*staff:3	*staff:4	*staff:5	*staff:6	*staff:7	*staff:7	*staff:8	*staff:8	*staff:9	*staff:9	*staff:10	*staff:10	*	*staff:11	*	*staff:12
4DD	4D 4A	4d 4f# 4a	4d 4f# 4a	16a	2.r	2.r	2.r	16d	16a	16D	16d	16f#	16a	2.ryy	16aa	2.ryy	2.ddd]
.	.	.	.	16d'	.	.	.	16d	16a	16D	16d	16f#	16a	.	16dd'	.	.
.	.	.	.	16d'	.	.	.	16d	16a	16D	16d	16f#	16a	.	16dd'	.	.
.	.	.	.	16d'	.	.	.	16d	16a	16D	16d	16f#	16a	.	16dd'	.	.
4r	4r	4r	4r	16c#	.	.	.	16d	16a	16D	16d	16f#	16a	.	16cc#	.	.
.	.	.	.	16d	.	.	.	16d	16a	16D	16d	16f#	16a	.	16dd	.	.
.	.	.	.	16e	.	.	.	16d	16a	16D	16d	16f#	16a	.	16ee	.	.
.	.	.	.	16f#	.	.	.	16d	16a	16D	16d	16f#	16a	.	16ff#	.	.
4CC	4C	4c 4f# 4a	4c 4f# 4a	16g	.	.	.	16d	16a	16c	16c	16f#	16a	.	16gg	.	.
.	.	.	.	16a	.	.	.	16d	16a	16c	16c	16f#	16a	.	16aa	.	.
.	.	.	.	16b	.	.	.	16d	16a	16c	16c	16f#	16a	.	16bb	.	.
.	.	.	.	16ccn	.	.	.	16d	16a	16c	16c	16f#	16a	.	16cccn	.	.
=93	=93	=93	=93	=93	=93	=93	=93	=93	=93	=93	=93	=93	=93	=93	=93	=93	=93
4BBB	4BB	4G 4g 4b	4g 4dd	2dd	2.r	2.r	2.r	16g	16g	2.ryy	16B	16g	16dd	2.ryy	2ddd	2.ryy	2ddd
.	.	.	.	.	.	.	.	16g	16g	.	16B	16g	16dd	.	.	.	.
.	.	.	.	.	.	.	.	16g	16g	.	16B	16g	16dd	.	.	.	.
.	.	.	.	.	.	.	.	16g	16g	.	16B	16g	16dd	.	.	.	.
4r	4r	4r	4r	.	.	.	.	16g	16g	.	16BB	16g	16dd	.	.	.	.
.	.	.	.	.	.	.	.	16g	16g	.	16BB	16g	16dd	.	.	.	.
.	.	.	.	.	.	.	.	16g	16g	.	16BB	16g	16dd	.	.	.	.
.	.	.	.	.	.	.	.	16g	16g	.	16BB	16g	16dd	.	.	.	.
.	.	.	.	8ddq	.	.	.	.	.	.	.	.	.	.	8dddq	.	8fff#q
4CC	4C	4c 4e 4a	4a 4cc	16cc	.	.	.	16g	16g	.	16C	16g	16ee	.	16ccc	.	16eee
.	.	.	.	16b	.	.	.	16g	16g	.	16C	16g	16dd	.	16bb	.	16ddd
.	.	.	.	16cc	.	.	.	16g	16g	.	16C	16g	16ee	.	16ccc	.	16eee
.	.	.	.	16a	.	.	.	16g	16g	.	16C	16g	16cc	.	16aa	.	16ccc
=94	=94	=94	=94	=94	=94	=94	=94	=94	=94	=94	=94	=94	=94	=94	=94	=94	=94
4DD	4D	4B 4g	4g 4b	2g	2.r	2.r	2.r	16g	16b	16D	2.ryy	16g	16b	2.ryy	2gg	2.ryy	2bb
.	.	.	.	.	.	.	.	16g	16b	16D	.	16g	16b	.	.	.	.
.	.	.	.	.	.	.	.	16g	16b	16D	.	16g	16b	.	.	.	.
.	.	.	.	.	.	.	.	16g	16b	16D	.	16g	16b	.	.	.	.
4r	4r	4r	4r	.	.	.	.	16g	16b	16D	.	16g	16b	.	.	.	.
.	.	.	.	.	.	.	.	16g	16b	16D	.	16g	16b	.	.	.	.
.	.	.	.	.	.	.	.	16g	16b	16D	.	16g	16b	.	.	.	.
.	.	.	.	.	.	.	.	16g	16b	16D	.	16g	16b	.	.	.	.
.	.	.	.	8bq	.	.	.	.	.	.	.	.	.	.	8bbq	.	.
4DD	4D	4d 4f# 4a	4d 4f# 4a	16a	.	.	.	16d	16a	16D	.	16a	16cc	.	16aa	.	16ff#
.	.	.	.	16g	.	.	.	16d	16a	16D	.	16g	16b	.	16gg	.	16gg
.	.	.	.	16a	.	.	.	16d	16a	16D	.	16a	16cc	.	16aa	.	16ff#
.	.	.	.	16f#	.	.	.	16d	16a	16D	.	16f#	16a	.	16ff#	.	16aa
=95	=95	=95	=95	=95	=95	=95	=95	=95	=95	=95	=95	=95	=95	=95	=95	=95	=95
.	.	.	.	.	.	.	.	.	.	.	.	.	.	.	.	.	8ggq
*	*	*	*	*	*	*	*	*	*	*	*	*	*	*staff:11	*	*staff:12	*
.	.	.	.	.	.	.	.	.	.	.	.	.	.	.	.	8ggq	.
16BBB	16BB	16G 16d	16g 16dd	2gg	4GG	2g	2dd	16g	16g	2.ryy	16B	16dd	16gg	2dd	2gg	2ggg	2ggg
16BBB	16BB	16G 16d	16g 16dd	.	.	.	.	16g	16g	.	16B	16dd	16gg	.	.	.	.
16BBB	16BB	16G 16d	16g 16dd	.	.	.	.	16g	16g	.	16B	16dd	16gg	.	.	.	.
16BBB	16BB	16G 16d	16g 16dd	.	.	.	.	16g	16g	.	16B	16dd	16gg	.	.	.	.
16BBB	16BB	16G 16d	16g 16dd	.	4r	.	.	16g	16g	.	16B	16dd	16gg	.	.	.	.
16BBB	16BB	16G 16d	16g 16dd	.	.	.	.	16g	16g	.	16B	16dd	16gg	.	.	.	.
16BBB	16BB	16G 16d	16g 16dd	.	.	.	.	16g	16g	.	16B	16dd	16gg	.	.	.	.
16BBB	16BB	16G 16d	16g 16dd	.	.	.	.	16g	16g	.	16B	16dd	16gg	.	.	.	.
.	.	.	.	8ff#q	.	.	.	.	.	.	.	.	8ff#q	.	8ff#q	8fff#q	8fff#q
16CC	16C	16G 16e	16cc	16ee	4r	4cc	4ee	16g	16g	.	16c	16cc	16ee	16cc	16ee	16eee	16eee
16CC	16C	16G 16e	16b	16dd	.	.	.	16g	16g	.	16c	16b	16dd	16b	16dd	16ddd	16ddd
16CC	16C	16G 16e	16cc	16ee	.	.	.	16g	16g	.	16c	16cc	16ee	16cc	16ee	16eee	16eee
16CC	16C	16G 16e	16a	16cc	.	.	.	16g	16g	.	16c	16a	16cc	16a	16cc	16ccc	16ccc
=96	=96	=96	=96	=96	=96	=96	=96	=96	=96	=96	=96	=96	=96	=96	=96	=96	=96
16DD	16D	16d	16g	2b	2.r	2.dd	2.dd	16g	16b	16d	2.ryy	16g	16b	2g	2b	2ddd	2ddd
16DD	16D	16d	16g	.	.	.	.	16g	16b	16d	.	16g	16b	.	.	.	.
16DD	16D	16d	16g	.	.	.	.	16g	16b	16d	.	16g	16b	.	.	.	.
16DD	16D	16d	16g	.	.	.	.	16g	16b	16d	.	16g	16b	.	.	.	.
16DD	16D	16d	16g	.	.	.	.	16g	16b	16d	.	16g	16b	.	.	.	.
16DD	16D	16d	16g	.	.	.	.	16g	16b	16d	.	16g	16b	.	.	.	.
16DD	16D	16d	16g	.	.	.	.	16g	16b	16d	.	16g	16b	.	.	.	.
16DD	16D	16d	16g	.	.	.	.	16g	16b	16d	.	16g	16b	.	.	.	.
.	.	.	8gq	8bq	.	.	.	.	.	.	.	8gq	8bq	8gq	8bq	8bbq	8bbq
16DD	16D	16c	16f#	16a	.	.	.	16d	16a	16D	.	16f#	16a	16f#	16a	16aa	16aa
16DD	16D	16c	16e	16g	.	.	.	16d	16a	16D	.	16e	16g	16e	16g	16gg	16gg
16DD	16D	16c	16f#	16a	.	.	.	16d	16a	16D	.	16f#	16a	16f#	16a	16aa	16aa
16DD	16D	16c	16f#'	16dd	.	.	.	16d	16a	16D	.	16f#'	16dd	16f#'	16dd	16ddd	16ddd
=97	=97	=97	=97	=97	=97	=97	=97	=97	=97	=97	=97	=97	=97	=97	=97	=97	=97
8GG'	8G'	8B'	8g'	16g	8GG	8g	8dd	8B	8g	8G	8G	8g	8b	8g'y	8b'	16gg	16gg
.	.	.	.	16d	.	.	.	.	.	.	.	.	.	.	.	16dd	16dd
16r	16r	16r	16r	16a'	8r	8ryy	8r	8ryy	8r	8r	8r	8ryy	8r	16cc'y	16r	16aa'	16aa'
16DD'	16D'	16A'	16c'	16f#'	.	.	.	.	.	.	.	.	.	8b'y	16ff#'	16ff#'	16ff#'
8GG'	8G'	8B'	8B'	16g	4r	4ryy	4r	4ryy	4r	4r	4r	4ryy	4r	.	8gg'	16gg	16gg
.	.	.	.	16d	.	.	.	.	.	.	.	.	.	16cc'y	.	16dd	16dd
16r	16r	16r	16r	16a'	.	.	.	.	.	.	.	.	.	8b'y	16r	16aa'	16aa'
16DD'	16D'	16A'	16c'	16f#'	.	.	.	.	.	.	.	.	.	.	16ff#'	16ff#'	16ff#'
8GG'	8G'	8B'	8B'	16g	4r	4ryy	4r	4ryy	4r	4r	4r	4ryy	4r	16cc'y	8gg'	16gg	16gg
.	.	.	.	16d	.	.	.	.	.	.	.	.	.	96ryy	.	16dd	16dd
.	.	.	.	.	.	.	.	.	.	.	.	.	.	96ryy	.	.	.
.	.	.	.	.	.	.	.	.	.	.	.	.	.	96ryy	.	.	.
.	.	.	.	.	.	.	.	.	.	.	.	.	.	96ryy	.	.	.
.	.	.	.	.	.	.	.	.	.	.	.	.	.	96ryy	.	.	.
.	.	.	.	.	.	.	.	.	.	.	.	.	.	96ryy	.	.	.
16r	16r	16r	16r	16a'	.	.	.	.	.	.	.	.	.	96ryy	16r	16aa'	16aa'
.	.	.	.	.	.	.	.	.	.	.	.	.	.	96ryy	.	.	.
.	.	.	.	.	.	.	.	.	.	.	.	.	.	96ryy	.	.	.
.	.	.	.	.	.	.	.	.	.	.	.	.	.	96ryy	.	.	.
.	.	.	.	.	.	.	.	.	.	.	.	.	.	96ryy	.	.	.
.	.	.	.	.	.	.	.	.	.	.	.	.	.	96ryy	.	.	.
16DD'	16D'	16A'	16c'	16f#'	.	.	.	.	.	.	.	.	.	96ryy	16ff#'	16ff#'	16ff#'
.	.	.	.	.	.	.	.	.	.	.	.	.	.	96ryy	.	.	.
.	.	.	.	.	.	.	.	.	.	.	.	.	.	96ryy	.	.	.
.	.	.	.	.	.	.	.	.	.	.	.	.	.	96ryy	.	.	.
.	.	.	.	.	.	.	.	.	.	.	.	.	.	96ryy	.	.	.
.	.	.	.	.	.	.	.	.	.	.	.	.	.	96ryy	.	.	.
!!WARNING: This measure contained too few data records
=98	=98	=98	=98	=98	=98	=98	=98	=98	=98	=98	=98	=98	=98	=98	=98	=98	=98
8GG	8G	8B	8B	8g	4r	4ryy	4r	4ryy	4r	4r	4r	4ryy	4r	8b	8gg	8gg	8gg
8r	8r	8r	8r	8r	.	.	.	.	.	.	.	.	.	8ryy	8r	8r	8r
4GGG	4GG	4G 4d 4b	4d 4b 4gg	4d 4b 4gg	4GG	4g	4dd	4B	4g	4GG	4GG	4b	4gg	4b	4gg	4ggg	4ggg
4r	4r	4r	4r	4r	4r	4ryy	4r	4ryy	4r	4r	4r	4ryy	4r	4ryy	4r	4r	4r
==99||	==99||	==99||	==99||	==99||	==99||	==99||	==99||	==99||	==99||	==99||	==99||	==99||	==99||	==99||	==99||	==99||	==99||
*-	*-	*-	*-	*-	*-	*-	*-	*-	*-	*-	*-	*-	*-	*-	*-	*-	*-
